!!!COM: Haydn, Franz Joseph
!!!OPR: London Symphonies
!!!OTL: Symphonie Nr. 102
!!!XEN: Symphony No. 102 in B-flat major
!!!OMV: Movement 2.
!!!YEC: Copyright 1996, Center for Computer Assisted Research in the Humanities
!!!YEM: Rights to all derivative electronic formats reserved.
!!!YEM: Refer to licensing agreement for further details.
!!
!! Meas. 57-end has horns playing C2 & C3 in bass clef. C2 is below the fundamental
!! of the F horn so I assume the horns are transposing up rather than down in these
!! measures (old notation). Therefore X was changed to +17 at measure 57.
!!
!! Adagio
**kern	**kern	**kern	**kern	**kern	**kern	**kern	**kern	**kern	**kern	**kern	**kern	**kern	**kern	**kern
!Bassi continui	!Violoncello - Solo	!Viola	!Violino II	!Violino I	!Timpani in C, F	!Tromba 2 in C	!Tromba 1 in C	!Corno 2 in F	!Corno 1 in F	!Fagotto 2	!Fagotto 1	!Oboe 2	!Oboe 1	!Flauto 1
*Icbass	*Icello	*Iviola	*Ivioln	*Ivioln	*Itimpa	*Itromp	*Itromp	*Icor	*Icor	*Ifagot	*Ifagot	*Ioboe	*Ioboe	*Iflt
*ICstr	*ICstr	*ICstr	*ICstr	*ICstr	*ICidio	*ICbras	*ICbras	*ICbras	*ICbras	*ICww	*ICww	*ICww	*ICww	*ICww
*clefF4	*clefF4	*clefC3	*clefG2	*clefG2	*clefF4	*clefG2	*clefG2	*clefG2	*clefG2	*clefF4	*clefF4	*clefG2	*clefG2	*clefG2
*k[b-]	*k[b-]	*k[b-]	*k[b-]	*k[b-]	*k[b-]	*k[b-]	*k[b-]	*k[]	*k[]	*k[b-]	*k[b-]	*k[b-]	*k[b-]	*k[b-]
*M3/4	*M3/4	*M3/4	*M3/4	*M3/4	*M3/4	*M3/4	*M3/4	*M3/4	*M3/4	*M3/4	*M3/4	*M3/4	*M3/4	*M3/4
=1-	=1-	=1-	=1-	=1-	=1-	=1-	=1-	=1-	=1-	=1-	=1-	=1-	=1-	=1-
8F'\	8F'\	8c'\	8A'/	(8f/L	2.r	2.r	2.r	2.r	2.r	2.r	2.r	2.r	2.r	2.r
8r	8r	8r	8r	16.f/LL)	.	.	.	.	.	.	.	.	.	.
.	.	.	.	32a/JJk	.	.	.	.	.	.	.	.	.	.
8F'\	8F'\	8c'\	8A'/	(8..cc\L	.	.	.	.	.	.	.	.	.	.
8r	8r	8r	8r	.	.	.	.	.	.	.	.	.	.	.
.	.	.	.	32a\Jkk)	.	.	.	.	.	.	.	.	.	.
8F'\	8F'\	8A'/	8f'/	(8..dd\L	.	.	.	.	.	.	.	.	.	.
8r	8r	8r	8r	.	.	.	.	.	.	.	.	.	.	.
.	.	.	.	32b\Jkk)	.	.	.	.	.	.	.	.	.	.
=2	=2	=2	=2	=2	=2	=2	=2	=2	=2	=2	=2	=2	=2	=2
(2E\	[4E\	(2G/	2.c/	(24cc\LL	2.r	2.r	2.r	2.r	2.r	2.r	2.r	2.r	2.r	2.r
.	.	.	.	24cc\	.	.	.	.	.	.	.	.	.	.
.	.	.	.	24ee\)	.	.	.	.	.	.	.	.	.	.
.	.	.	.	(24gg\	.	.	.	.	.	.	.	.	.	.
.	.	.	.	24ee\	.	.	.	.	.	.	.	.	.	.
.	.	.	.	24cc\JJ)	.	.	.	.	.	.	.	.	.	.
.	(24E\LL]	.	.	(4b-\	.	.	.	.	.	.	.	.	.	.
.	24G\	.	.	.	.	.	.	.	.	.	.	.	.	.
.	24B-\)	.	.	.	.	.	.	.	.	.	.	.	.	.
.	(24d\	.	.	.	.	.	.	.	.	.	.	.	.	.
.	24B-\	.	.	.	.	.	.	.	.	.	.	.	.	.
.	24G\JJ)	.	.	.	.	.	.	.	.	.	.	.	.	.
4F\)	(24F\LL	4A/)	.	4a/)	.	.	.	.	.	.	.	.	.	.
.	24A\	.	.	.	.	.	.	.	.	.	.	.	.	.
.	24d\)	.	.	.	.	.	.	.	.	.	.	.	.	.
.	(24c\	.	.	.	.	.	.	.	.	.	.	.	.	.
.	24A\	.	.	.	.	.	.	.	.	.	.	.	.	.
.	24F\JJ)	.	.	.	.	.	.	.	.	.	.	.	.	.
=3	=3	=3	=3	=3	=3	=3	=3	=3	=3	=3	=3	=3	=3	=3
!! In Pleyel, the cello part is like the Dover bassi part in m.3-8,12-17,19-42,etc.
4BB-'/	4B-'\	4d'\	8d/	(24g\LL	2.r	2.r	2.r	2.r	2.r	2.r	2.r	2.r	2.r	2.r
.	.	.	.	24g\	.	.	.	.	.	.	.	.	.	.
.	.	.	.	24ee-\)	.	.	.	.	.	.	.	.	.	.
.	.	.	8r	(24dd\	.	.	.	.	.	.	.	.	.	.
.	.	.	.	24b-\	.	.	.	.	.	.	.	.	.	.
.	.	.	.	24g\JJ)	.	.	.	.	.	.	.	.	.	.
4C'/	4c'\	4c'\	8A/	(24f/LL	.	.	.	.	.	.	.	.	.	.
.	.	.	.	24c/	.	.	.	.	.	.	.	.	.	.
.	.	.	.	24f/JJ)	.	.	.	.	.	.	.	.	.	.
.	.	.	8r	[8cc/J	.	.	.	.	.	.	.	.	.	.
4C'/	4C'/	4E'/	8B-/	(24cc/LL]	.	.	.	.	.	.	.	.	.	.
.	.	.	.	24b-/	.	.	.	.	.	.	.	.	.	.
.	.	.	.	24dd/)	.	.	.	.	.	.	.	.	.	.
.	.	.	8r	(24b-/	.	.	.	.	.	.	.	.	.	.
.	.	.	.	24g/	.	.	.	.	.	.	.	.	.	.
.	.	.	.	24e/JJ)	.	.	.	.	.	.	.	.	.	.
*	*	*	*	*	*	*	*	*	*	*	*clefC4	*	*	*
=4	=4	=4	=4	=4	=4	=4	=4	=4	=4	=4	=4	=4	=4	=4
4.FF/	4FF/	(4E/	(4B-/	(4g/	2.r	2.r	2.r	2.r	2.r	2.r	4r	2.r	2.r	2.r
.	8r	8F/)	8A/)	8f/)	.	.	.	.	.	.	8r	.	.	.
(8F\L	(24A\LL	(8F'/L	(8A/L	8r	.	.	.	.	.	.	(8f'\L	.	.	.
.	24F\	.	.	.	.	.	.	.	.	.	.	.	.	.
.	24A\JJ)	.	.	.	.	.	.	.	.	.	.	.	.	.
8G\	24B-\LL	8F'/	8B-/	4r	.	.	.	.	.	.	8f'\	.	.	.
.	24F\	.	.	.	.	.	.	.	.	.	.	.	.	.
.	24B-\	.	.	.	.	.	.	.	.	.	.	.	.	.
8A\J)	24c\	8F'/J)	8c/J)	.	.	.	.	.	.	.	8f'\J)	.	.	.
.	24F\	.	.	.	.	.	.	.	.	.	.	.	.	.
.	24c\JJ	.	.	.	.	.	.	.	.	.	.	.	.	.
=5	=5	=5	=5	=5	=5	=5	=5	=5	=5	=5	=5	=5	=5	=5
2.B-\	24d\LL	(4F/	2.d/	2.dd\	2.r	2.r	2.r	2.r	2.r	2.r	(4f\	2.r	2.r	2.ddd\
.	24B-\	.	.	.	.	.	.	.	.	.	.	.	.	.
.	24F\	.	.	.	.	.	.	.	.	.	.	.	.	.
.	24d\	.	.	.	.	.	.	.	.	.	.	.	.	.
.	24B-\	.	.	.	.	.	.	.	.	.	.	.	.	.
.	24F\JJ	.	.	.	.	.	.	.	.	.	.	.	.	.
.	24d\LL	4F#/	.	.	.	.	.	.	.	.	4f#\	.	.	.
.	24B-\	.	.	.	.	.	.	.	.	.	.	.	.	.
.	24F#\	.	.	.	.	.	.	.	.	.	.	.	.	.
.	24d\	.	.	.	.	.	.	.	.	.	.	.	.	.
.	24B-\	.	.	.	.	.	.	.	.	.	.	.	.	.
.	24F#\JJ	.	.	.	.	.	.	.	.	.	.	.	.	.
.	24d\LL	4G/)	.	.	.	.	.	.	.	.	4g\)	.	.	.
.	24B-\	.	.	.	.	.	.	.	.	.	.	.	.	.
.	24G\	.	.	.	.	.	.	.	.	.	.	.	.	.
.	24d\	.	.	.	.	.	.	.	.	.	.	.	.	.
.	24B-\	.	.	.	.	.	.	.	.	.	.	.	.	.
.	24G\JJ	.	.	.	.	.	.	.	.	.	.	.	.	.
=6	=6	=6	=6	=6	=6	=6	=6	=6	=6	=6	=6	=6	=6	=6
4B-\	24d-\LL	4G/	4d-/	4e/	2.r	2.r	2.r	2.r	2.r	2.r	4e\	2.r	2.r	4ee\
.	24B-\	.	.	.	.	.	.	.	.	.	.	.	.	.
.	24G\	.	.	.	.	.	.	.	.	.	.	.	.	.
.	24d-\	.	.	.	.	.	.	.	.	.	.	.	.	.
.	24B-\	.	.	.	.	.	.	.	.	.	.	.	.	.
.	24G\JJ	.	.	.	.	.	.	.	.	.	.	.	.	.
4A\	24c\LL	(4A/	2c/	[4f/	.	.	.	.	.	.	[4f\	.	.	[4ff\
.	24A\	.	.	.	.	.	.	.	.	.	.	.	.	.
.	24F\	.	.	.	.	.	.	.	.	.	.	.	.	.
.	24c\	.	.	.	.	.	.	.	.	.	.	.	.	.
.	24A\	.	.	.	.	.	.	.	.	.	.	.	.	.
.	24F\JJ	.	.	.	.	.	.	.	.	.	.	.	.	.
4A\	24c\LL	4F/)	.	(16f/LL]	.	.	.	.	.	.	16f\LL]	.	.	(16ff\LL]
.	24A\	.	.	.	.	.	.	.	.	.	.	.	.	.
.	.	.	.	16f/	.	.	.	.	.	.	(16F\	.	.	16ff\
.	24F\	.	.	.	.	.	.	.	.	.	.	.	.	.
.	24c\	.	.	16a/	.	.	.	.	.	.	16A\	.	.	16aa\
.	24A\	.	.	.	.	.	.	.	.	.	.	.	.	.
.	.	.	.	16cc/JJ)	.	.	.	.	.	.	16c\JJ)	.	.	16ccc\JJ)
.	24F\JJ	.	.	.	.	.	.	.	.	.	.	.	.	.
=7	=7	=7	=7	=7	=7	=7	=7	=7	=7	=7	=7	=7	=7	=7
2E\	24c\LL	4C/	2g/	(8.cc\L	2.r	2.r	2.r	2.r	2.r	2.r	(8.c\L	2.r	2.r	(8.ccc\L
.	24B-\	.	.	.	.	.	.	.	.	.	.	.	.	.
.	24G\	.	.	.	.	.	.	.	.	.	.	.	.	.
.	24c\	.	.	.	.	.	.	.	.	.	.	.	.	.
.	24B-\	.	.	.	.	.	.	.	.	.	.	.	.	.
.	.	.	.	32dd\LLL	.	.	.	.	.	.	32d\LLL	.	.	32ddd\LLL
.	24G\JJ	.	.	.	.	.	.	.	.	.	.	.	.	.
.	.	.	.	32cc\JJJ	.	.	.	.	.	.	32c\JJJ	.	.	32ccc\JJJ
.	24c\LL	4c\	.	4b-\)	.	.	.	.	.	.	4B-\)	.	.	4bb-\)
.	24B-\	.	.	.	.	.	.	.	.	.	.	.	.	.
.	24G\	.	.	.	.	.	.	.	.	.	.	.	.	.
.	24c\	.	.	.	.	.	.	.	.	.	.	.	.	.
.	24B-\	.	.	.	.	.	.	.	.	.	.	.	.	.
.	24G\JJ	.	.	.	.	.	.	.	.	.	.	.	.	.
4F\	24c\LL	4c\	4f/	4a/	.	.	.	.	.	.	4A\	.	.	4aa\
.	24A\	.	.	.	.	.	.	.	.	.	.	.	.	.
.	24F\	.	.	.	.	.	.	.	.	.	.	.	.	.
.	24c\	.	.	.	.	.	.	.	.	.	.	.	.	.
.	24A\	.	.	.	.	.	.	.	.	.	.	.	.	.
.	24F\JJ	.	.	.	.	.	.	.	.	.	.	.	.	.
=8	=8	=8	=8	=8	=8	=8	=8	=8	=8	=8	=8	=8	=8	=8
2C/	24C\LL	2c\	(8..a/L	(8..cc\L	2.r	2.r	2.r	2.r	2.r	2.r	(8..c\L	2.r	2.r	(8..ccc\L
.	24F\	.	.	.	.	.	.	.	.	.	.	.	.	.
.	24A\	.	.	.	.	.	.	.	.	.	.	.	.	.
.	24c\	.	.	.	.	.	.	.	.	.	.	.	.	.
.	24A\	.	.	.	.	.	.	.	.	.	.	.	.	.
.	24F\JJ	.	.	.	.	.	.	.	.	.	.	.	.	.
.	.	.	32f/Jkk)	32a\Jkk)	.	.	.	.	.	.	32A\Jkk)	.	.	32aa\Jkk)
.	24C/LL	.	8e/	8g/	.	.	.	.	.	.	8G'/	.	.	8gg'\
.	24C/	.	.	.	.	.	.	.	.	.	.	.	.	.
.	24BB/	.	.	.	.	.	.	.	.	.	.	.	.	.
.	24C/	.	8r	8r	.	.	.	.	.	.	8r	.	.	8r
.	24GG/	.	.	.	.	.	.	.	.	.	.	.	.	.
.	24EE/JJ	.	.	.	.	.	.	.	.	.	.	.	.	.
4r	8CC/	4r	4r	4r	.	.	.	.	.	.	4r	.	.	4r
.	8r	.	.	.	.	.	.	.	.	.	.	.	.	.
=9	=9	=9	=9	=9	=9	=9	=9	=9	=9	=9	=9	=9	=9	=9
2.r	4c\	4c\	4e-/	(24g\LL	2.r	2.r	2.r	2.r	2.r	2.r	2.r	2.r	2.r	(24g\LL
.	.	.	.	24ee-\	.	.	.	.	.	.	.	.	.	24ee-\
.	.	.	.	24dd\)	.	.	.	.	.	.	.	.	.	24dd\)
.	.	.	.	(24cc\	.	.	.	.	.	.	.	.	.	(24cc\
.	.	.	.	24b\	.	.	.	.	.	.	.	.	.	24b\
.	.	.	.	24cc\JJ)	.	.	.	.	.	.	.	.	.	24cc\JJ)
.	2dz\	2dz\	2fz/	24bz'\LL	.	.	.	.	.	.	.	.	.	24bz'\LL
.	.	.	.	24dd'\	.	.	.	.	.	.	.	.	.	24dd'\
.	.	.	.	24ff'\	.	.	.	.	.	.	.	.	.	24ff'\
.	.	.	.	24gg'\	.	.	.	.	.	.	.	.	.	24gg'\
.	.	.	.	24aa-'\	.	.	.	.	.	.	.	.	.	24aa-'\
.	.	.	.	24gg'\JJ	.	.	.	.	.	.	.	.	.	24gg'\JJ
.	.	.	.	24ff'\LL	.	.	.	.	.	.	.	.	.	24ff'\LL
.	.	.	.	24ee-'\	.	.	.	.	.	.	.	.	.	24ee-'\
.	.	.	.	24dd'\	.	.	.	.	.	.	.	.	.	24dd'\
.	.	.	.	24cc'\	.	.	.	.	.	.	.	.	.	24cc'\
.	.	.	.	24b'\	.	.	.	.	.	.	.	.	.	24b'\
.	.	.	.	24dd'\JJ	.	.	.	.	.	.	.	.	.	24dd'\JJ
=10	=10	=10	=10	=10	=10	=10	=10	=10	=10	=10	=10	=10	=10	=10
2.r	2e-\	2e-\	2g/	(24dd\LL	2.r	2.r	2.r	2.r	2.r	2.r	2.r	2.r	2.r	(24dd\LL
.	.	.	.	24b\	.	.	.	.	.	.	.	.	.	24b\
.	.	.	.	24cc\)	.	.	.	.	.	.	.	.	.	24cc\)
.	.	.	.	24ee-'\	.	.	.	.	.	.	.	.	.	24ee-'\
.	.	.	.	24gg'\	.	.	.	.	.	.	.	.	.	24gg'\
.	.	.	.	24bb'\JJ	.	.	.	.	.	.	.	.	.	24bb'\JJ
.	.	.	.	(24ccc\LL	.	.	.	.	.	.	.	.	.	(24ccc\LL
.	.	.	.	24gg\)	.	.	.	.	.	.	.	.	.	24gg\)
.	.	.	.	24bb'\	.	.	.	.	.	.	.	.	.	24bb'\
.	.	.	.	(24ccc\	.	.	.	.	.	.	.	.	.	(24ccc\
.	.	.	.	24gg\)	.	.	.	.	.	.	.	.	.	24gg\)
.	.	.	.	24ccc'\JJ	.	.	.	.	.	.	.	.	.	24ccc'\JJ
.	4r	4r	4r	8eee-'\	.	.	.	.	.	.	.	.	.	8eee-'\
.	.	.	.	8r	.	.	.	.	.	.	.	.	.	8r
=11	=11	=11	=11	=11	=11	=11	=11	=11	=11	=11	=11	=11	=11	=11
2B-\	2B-\	2.e/ 2.G/	2.d-/	24ee'\LL	2.r	2.r	2.r	2.r	2.r	2.r	(4d-\	2.g/	2.ee\	24ee'\LL
.	.	.	.	24ddd-'\	.	.	.	.	.	.	.	.	.	24ddd-'\
.	.	.	.	24ccc'\	.	.	.	.	.	.	.	.	.	24ccc'\
.	.	.	.	24bb-'\	.	.	.	.	.	.	.	.	.	24bb-'\
.	.	.	.	24aa-'\	.	.	.	.	.	.	.	.	.	24aa-'\
.	.	.	.	24gg'\JJ	.	.	.	.	.	.	.	.	.	24gg'\JJ
.	.	.	.	(24ff\LL	.	.	.	.	.	.	4B-\	.	.	(24ff\LL
.	.	.	.	24ee\)	.	.	.	.	.	.	.	.	.	24ee\)
.	.	.	.	24gg'\	.	.	.	.	.	.	.	.	.	24gg'\
.	.	.	.	24dd-'\	.	.	.	.	.	.	.	.	.	24dd-'\
.	.	.	.	24cc'\	.	.	.	.	.	.	.	.	.	24cc'\
.	.	.	.	24b-'\JJ	.	.	.	.	.	.	.	.	.	24b-'\JJ
4B-\	4B-\	.	.	24a-'/LL	.	.	.	.	.	.	4G\)	.	.	24a-'/LL
.	.	.	.	24g'/	.	.	.	.	.	.	.	.	.	24g'/
.	.	.	.	24f'/	.	.	.	.	.	.	.	.	.	24f'/
.	.	.	.	24e'/	.	.	.	.	.	.	.	.	.	24e'/
.	.	.	.	24dd-'/	.	.	.	.	.	.	.	.	.	24dd-'/
.	.	.	.	24e'/JJ	.	.	.	.	.	.	.	.	.	24e'/JJ
=12	=12	=12	=12	=12	=12	=12	=12	=12	=12	=12	=12	=12	=12	=12
2.B\	2.B\	2.d\	2.d/	24f'/LL	2.r	2.r	2.r	2.r	2.r	2.r	8A-\	(8a-/L	(8ff\L	24f'/LL
.	.	.	.	24dd'/	.	.	.	.	.	.	.	.	.	24dd'/
.	.	.	.	24f'/	.	.	.	.	.	.	.	.	.	24f'/
.	.	.	.	24g'/	.	.	.	.	.	.	8r	8g/	8gg\	24g'/
.	.	.	.	24dd'/	.	.	.	.	.	.	.	.	.	24dd'/
.	.	.	.	24g'/JJ	.	.	.	.	.	.	.	.	.	24g'/JJ
.	.	.	.	24a-'/LL	.	.	.	.	.	.	4r	8f/	8aa-\	24a-'/LL
.	.	.	.	24dd'/	.	.	.	.	.	.	.	.	.	24dd'/
.	.	.	.	24a-'/	.	.	.	.	.	.	.	.	.	24a-'/
.	.	.	.	24g'/	.	.	.	.	.	.	.	8g/)	8gg\)	24g'/
.	.	.	.	24dd'/	.	.	.	.	.	.	.	.	.	24dd'/
.	.	.	.	24g'/JJ	.	.	.	.	.	.	.	.	.	24g'/JJ
.	.	.	.	(24f/LL	.	.	.	.	.	.	4r	8a-/	8ff\	(24f/LL
.	.	.	.	24a-/)	.	.	.	.	.	.	.	.	.	24a-/)
.	.	.	.	24dd'/	.	.	.	.	.	.	.	.	.	24dd'/
.	.	.	.	(24f/	.	.	.	.	.	.	.	8g/J	8ff\J	(24f/
.	.	.	.	24g/)	.	.	.	.	.	.	.	.	.	24g/)
.	.	.	.	24dd'/JJ	.	.	.	.	.	.	.	.	.	24dd'/JJ
*	*	*	*	*	*	*	*	*	*	*clefC4	*	*	*	*
=13	=13	=13	=13	=13	=13	=13	=13	=13	=13	=13	=13	=13	=13	=13
8c\L	8c\L	8c/L	(24e/LL	(24e/LL	2.r	2.r	2.r	2.r	2.r	8e\L	8g\L	8g/L	8ee\L	(24e/LL
.	.	.	24g/	24g/	.	.	.	.	.	.	.	.	.	24g/
.	.	.	24cc/)	24cc/)	.	.	.	.	.	.	.	.	.	24cc/)
8F\J	8F\J	8F/J	(24a/	(24a/	.	.	.	.	.	8d\J	8f\J	8a/J	(24dd\LL	(24a/
.	.	.	24f/	24dd/	.	.	.	.	.	.	.	.	24ff\	24dd/
.	.	.	24d/JJ)	24ff/JJ)	.	.	.	.	.	.	.	.	24aa\JJ)	24ff/JJ)
4G\	4G\	4G/	(4e/ (4c/	(24g\LL	.	.	.	.	.	(4c\	(4e\	(4e/	(4cc\	(24g\LL
.	.	.	.	24cc\	.	.	.	.	.	.	.	.	.	24cc\
.	.	.	.	24ee\)	.	.	.	.	.	.	.	.	.	24ee\)
.	.	.	.	24gg'\	.	.	.	.	.	.	.	.	.	24gg'\
.	.	.	.	24gg'\	.	.	.	.	.	.	.	.	.	24gg'\
.	.	.	.	24gg'\JJ	.	.	.	.	.	.	.	.	.	24gg'\JJ
4GG/	4GG/	(8..F/L	4d/) 4B/)	(24gg\LL	.	.	.	.	.	4B\)	4d\)	4f/)	4b\)	(24gg\LL
.	.	.	.	24ff#\	.	.	.	.	.	.	.	.	.	24ff#\
.	.	.	.	24ff\	.	.	.	.	.	.	.	.	.	24ff\
.	.	.	.	24ee\	.	.	.	.	.	.	.	.	.	24ee\
.	.	.	.	24ff\	.	.	.	.	.	.	.	.	.	24ff\
.	.	.	.	24b\JJ)	.	.	.	.	.	.	.	.	.	24b\JJ)
.	.	32D/Jkk)	.	.	.	.	.	.	.	.	.	.	.	.
=14	=14	=14	=14	=14	=14	=14	=14	=14	=14	=14	=14	=14	=14	=14
8C/	24C\LL	[2.C/	(2e/ (2G/	(8dd\L	2.r	2.r	2.r	2.r	2.r	4c\	4c\	4e/	(8dd\L	(8dd\L
.	24E\	.	.	.	.	.	.	.	.	.	.	.	.	.
.	24G\	.	.	.	.	.	.	.	.	.	.	.	.	.
8r	24C\	.	.	8cc\J)	.	.	.	.	.	.	.	.	8cc\J)	8cc\J)
.	24E\	.	.	.	.	.	.	.	.	.	.	.	.	.
.	24G\JJ	.	.	.	.	.	.	.	.	.	.	.	.	.
8C/	24C\LL	.	.	24r	.	.	.	.	.	4r	4r	4r	4r	24r
.	24E\	.	.	24eee'\LL	.	.	.	.	.	.	.	.	.	24eee'\LL
.	24G\	.	.	24ddd'\	.	.	.	.	.	.	.	.	.	24ddd'\
8r	24C\	.	.	24ccc'\	.	.	.	.	.	.	.	.	.	24ccc'\
.	24E\	.	.	24bb'\	.	.	.	.	.	.	.	.	.	24bb'\
.	24G\JJ	.	.	24aa'\JJ	.	.	.	.	.	.	.	.	.	24aa'\JJ
*	*	*	*	*	*	*	*	*	*	*	*clefF4	*	*	*
8C/	24C\LL	.	4f/) 4A-/)	(24gg\LL	.	.	.	.	.	4r	(8..B\L	(4b\	(4ff\	(24gg\LL
.	24F\	.	.	24ff\)	.	.	.	.	.	.	.	.	.	24ff\)
.	24A-\	.	.	24ee'\	.	.	.	.	.	.	.	.	.	24ee'\
8r	24C\	.	.	(24ff\	.	.	.	.	.	.	.	.	.	(24ff\
.	24F\	.	.	24dd\)	.	.	.	.	.	.	.	.	.	24dd\)
.	24A-\JJ	.	.	24b'\JJ	.	.	.	.	.	.	.	.	.	24b'\JJ
.	.	.	.	.	.	.	.	.	.	.	32d\Jkk)	.	.	.
=15	=15	=15	=15	=15	=15	=15	=15	=15	=15	=15	=15	=15	=15	=15
8C/	24C\LL	2.C_/	(2e/ (2G/	(24b\LL	2.r	2.r	2.r	2.r	2.r	2.r	4c\	8cc\)	8ee\)	(24b\LL
.	24E\	.	.	24cc\)	.	.	.	.	.	.	.	.	.	24cc\)
.	24G\	.	.	24ee'\	.	.	.	.	.	.	.	.	.	24ee'\
8r	24C\	.	.	(24gg\	.	.	.	.	.	.	.	8r	8r	(24gg\
.	24E\	.	.	24bb\)	.	.	.	.	.	.	.	.	.	24bb\)
.	24G\JJ	.	.	24ccc'\JJ	.	.	.	.	.	.	.	.	.	24ccc'\JJ
8C/	24C\LL	.	.	24eee'\LL	.	.	.	.	.	.	4r	4r	4r	24eee'\LL
.	24E\	.	.	24ddd'\	.	.	.	.	.	.	.	.	.	24ddd'\
.	24G\	.	.	24ccc'\	.	.	.	.	.	.	.	.	.	24ccc'\
8r	24C\	.	.	24bb'\	.	.	.	.	.	.	.	.	.	24bb'\
.	24E\	.	.	24aa'\	.	.	.	.	.	.	.	.	.	24aa'\
.	24G\JJ	.	.	24gg'\JJ	.	.	.	.	.	.	.	.	.	24gg'\JJ
8C/	24C\LL	.	4f/) 4A-/)	(24ff\LL	.	.	.	.	.	.	(8..B\L	4b\	4ff\	(24ff\LL
.	24F\	.	.	24dd\	.	.	.	.	.	.	.	.	.	24dd\
.	24A-\	.	.	24b\)	.	.	.	.	.	.	.	.	.	24b\)
8r	24C\	.	.	(24aa-\	.	.	.	.	.	.	.	.	.	(24aa-\
.	24F\	.	.	24ff\	.	.	.	.	.	.	.	.	.	24ff\
.	24A-\JJ	.	.	24b\JJ)	.	.	.	.	.	.	.	.	.	24b\JJ)
.	.	.	.	.	.	.	.	.	.	.	32d\Jkk)	.	.	.
=16	=16	=16	=16	=16	=16	=16	=16	=16	=16	=16	=16	=16	=16	=16
4.C/	(4F\	4.C/]	(4f/ (4A-/	(4b\	2.r	2.r	2.r	2.r	2.r	2.r	(4d\	(4b\	(4ff\	(4b\
.	8E\)	.	8e/) 8G/)	8cc\)	.	.	.	.	.	.	8c\)	8cc\)	8ee\)	8cc\)
8r	8r	8r	8r	8r	.	.	.	.	.	.	8r	8r	8r	8r
4r	4r	4r	4r	4r	.	.	.	.	.	.	4r	4r	4r	4r
*	*	*	*	*	*	*	*	*	*	*clefF4	*	*	*	*
=17	=17	=17	=17	=17	=17	=17	=17	=17	=17	=17	=17	=17	=17	=17
2FF/	2FF/	2c\	2A/	8f/L	4FF/	2c/	2cc\	2A/	2f\	2A\	(4f\	2a/	2ff\	8ff\L
.	.	.	.	16.f/LL)	.	.	.	.	.	.	.	.	.	16.ff\LL)
.	.	.	.	32a/JJk	.	.	.	.	.	.	.	.	.	32aa\JJk
.	.	.	.	(8..cc\L	4r	.	.	.	.	.	4c\)	.	.	(8..ccc\L
.	.	.	.	32a\Jkk)	.	.	.	.	.	.	.	.	.	32aa\Jkk)
4Fz\	4Fz\	(8..Bz\L	4A-z/	(8..ddz\L	4FFz/	4r	4ddz\	4Fz/	4fz\	4A-z\	4Bz\	4a-z/	4bz\	(8..dddz\L
.	.	32d\Jkk)	.	32b\Jkk)	.	.	.	.	.	.	.	.	.	32bb\Jkk)
=18	=18	=18	=18	=18	=18	=18	=18	=18	=18	=18	=18	=18	=18	=18
(2E\	[4G\	4c\	(8..G/L	(24cc\LL	4C/	2.c/	2.cc\	(2c/	(2g\	2G\	4c\	4g/	[2cc\	(24ccc\LL
.	.	.	.	24cc\	.	.	.	.	.	.	.	.	.	24ccc\
.	.	.	.	24ee\)	.	.	.	.	.	.	.	.	.	24eee\)
.	.	.	.	(24gg\	.	.	.	.	.	.	.	.	.	(24ggg\
.	.	.	.	24ee\	.	.	.	.	.	.	.	.	.	24eee\
.	.	.	.	24cc\JJ)	.	.	.	.	.	.	.	.	.	24ccc\JJ)
.	.	.	32c/Jkk)	.	.	.	.	.	.	.	.	.	.	.
.	(24G\LL]	(4G/	2c/	(4b-\	4r	.	.	.	.	.	(4B-\	(4b-\	.	(4bb-\
.	24G\	.	.	.	.	.	.	.	.	.	.	.	.	.
.	24B-\)	.	.	.	.	.	.	.	.	.	.	.	.	.
.	(24d\	.	.	.	.	.	.	.	.	.	.	.	.	.
.	24B-\	.	.	.	.	.	.	.	.	.	.	.	.	.
.	24G\JJ)	.	.	.	.	.	.	.	.	.	.	.	.	.
4F\)	(24F\LL	4A/)	.	4a/)	4r	.	.	4f\)	4a\)	4F\	4A\)	4a/)	8.cc\L]	4aa\)
.	24A\	.	.	.	.	.	.	.	.	.	.	.	.	.
.	24d\)	.	.	.	.	.	.	.	.	.	.	.	.	.
.	(24c\	.	.	.	.	.	.	.	.	.	.	.	.	.
.	24A\	.	.	.	.	.	.	.	.	.	.	.	.	.
.	.	.	.	.	.	.	.	.	.	.	.	.	16cc#\Jkk	.
.	24F\JJ)	.	.	.	.	.	.	.	.	.	.	.	.	.
=19	=19	=19	=19	=19	=19	=19	=19	=19	=19	=19	=19	=19	=19	=19
4BB-/	4B-\	4d\	4d/	(24g\LL	4r	4r	4dd\	4r	4r	4B-\	4d\	(8..g/L	(8..dd\L	(24gg\LL
.	.	.	.	24g\	.	.	.	.	.	.	.	.	.	24gg\
.	.	.	.	24ee-\)	.	.	.	.	.	.	.	.	.	24eee-\)
.	.	.	.	(24dd\	.	.	.	.	.	.	.	.	.	(24ddd\
.	.	.	.	24b-\	.	.	.	.	.	.	.	.	.	24bb-\
.	.	.	.	24g\JJ)	.	.	.	.	.	.	.	.	.	24gg\JJ)
.	.	.	.	.	.	.	.	.	.	.	.	32b-/Jkk)	32gg\Jkk)	.
4C/	4c\	(4c\	(4A/	(24f/LL	4C/	2c/	2cc\	(4A/	(4f\	(4c\	(4c\	(4a/	(4ff\	(24ff\LL
.	.	.	.	24c/	.	.	.	.	.	.	.	.	.	24cc\
.	.	.	.	24f/JJ)	.	.	.	.	.	.	.	.	.	24ff\JJ)
.	.	.	.	[8cc/J	.	.	.	.	.	.	.	.	.	[8ccc\J
4C/	4C/	4E/)	4B-/)	(24cc/LL]	24C/LL	.	.	4c/)	4g\)	4B-\)	4e\)	4g/)	4ee\)	(24ccc\LL]
.	.	.	.	24b-/	24C/	.	.	.	.	.	.	.	.	24bb-\
.	.	.	.	24dd/)	24C/	.	.	.	.	.	.	.	.	24ddd\)
.	.	.	.	(24b-/	24C/	.	.	.	.	.	.	.	.	(24bb-\
.	.	.	.	24g/	24C/	.	.	.	.	.	.	.	.	24gg\
.	.	.	.	24e/JJ)	24C/JJ	.	.	.	.	.	.	.	.	24ee\JJ)
=20	=20	=20	=20	=20	=20	=20	=20	=20	=20	=20	=20	=20	=20	=20
4.FF/	4FF/	(4E/	(4B-/	(4g/	4FF/	4c/	4cc\	(4c/	(4g\	(4B-\	(4e\	(4b-/	(4ee\	(4gg\
.	8r	8F/)	8A/)	8f/)	8r	4r	4r	8f\)	8a\)	8A\)	8f\)	8a/)	8ff\)	8ff\)
(8F\L	24A\LL	(8f'\L	(8A/L	8r	8FF/L	.	.	(8F'/L	(8f'\L	(8F\L	(8f'\L	(4ff\	(8a\L	8r
.	24F\	.	.	.	.	.	.	.	.	.	.	.	.	.
.	24A\JJ	.	.	.	.	.	.	.	.	.	.	.	.	.
8G\	24B-\LL	8f'\	8B-/	4r	8FF/	4r	4r	8F'/	8f'\	8G\	8f'\	.	8b-\	4r
.	24F\	.	.	.	.	.	.	.	.	.	.	.	.	.
.	24B-\	.	.	.	.	.	.	.	.	.	.	.	.	.
8A\J)	24c\	8f'\J)	8c/J)	.	8FF/J	.	.	8F'/J)	8f'\J)	8A\J)	8f'\J)	8ee-\)	8cc\J)	.
.	24F\	.	.	.	.	.	.	.	.	.	.	.	.	.
.	24c\JJ	.	.	.	.	.	.	.	.	.	.	.	.	.
=21	=21	=21	=21	=21	=21	=21	=21	=21	=21	=21	=21	=21	=21	=21
2.B-\	24d\LL	(4f\	2.d/	2.dd\	4FF/	2.r	2.r	4F/	4f\	2.B-\	(4f\	(4dd\	2.dd\	2.ddd\
.	24B-\	.	.	.	.	.	.	.	.	.	.	.	.	.
.	24F\	.	.	.	.	.	.	.	.	.	.	.	.	.
.	24d\	.	.	.	.	.	.	.	.	.	.	.	.	.
.	24B-\	.	.	.	.	.	.	.	.	.	.	.	.	.
.	24F\JJ	.	.	.	.	.	.	.	.	.	.	.	.	.
.	24d\LL	4f#\	.	.	4r	.	.	4r	4r	.	4f#\	4f#/	.	.
.	24B-\	.	.	.	.	.	.	.	.	.	.	.	.	.
.	24F#\	.	.	.	.	.	.	.	.	.	.	.	.	.
.	24d\	.	.	.	.	.	.	.	.	.	.	.	.	.
.	24B-\	.	.	.	.	.	.	.	.	.	.	.	.	.
.	24F#\JJ	.	.	.	.	.	.	.	.	.	.	.	.	.
.	24d\LL	4g\)	.	.	4r	.	.	4r	4r	.	4g\)	4g/)	.	.
.	24B-\	.	.	.	.	.	.	.	.	.	.	.	.	.
.	24G\	.	.	.	.	.	.	.	.	.	.	.	.	.
.	24d\	.	.	.	.	.	.	.	.	.	.	.	.	.
.	24B-\	.	.	.	.	.	.	.	.	.	.	.	.	.
.	24G\JJ	.	.	.	.	.	.	.	.	.	.	.	.	.
=22	=22	=22	=22	=22	=22	=22	=22	=22	=22	=22	=22	=22	=22	=22
4B-\	24d-\LL	4G/	4d-/	4e/	2.r	2.r	2.r	4g\	4g\	4G\	4e\	4g/	4ee\	4ee\
.	24B-\	.	.	.	.	.	.	.	.	.	.	.	.	.
.	24G\	.	.	.	.	.	.	.	.	.	.	.	.	.
.	24d-\	.	.	.	.	.	.	.	.	.	.	.	.	.
.	24B-\	.	.	.	.	.	.	.	.	.	.	.	.	.
.	24G\JJ	.	.	.	.	.	.	.	.	.	.	.	.	.
4A\	24c\LL	(4A/	2c/	[4f/	.	.	.	4f\	4a\	[4A\	[4f\	(4a/	2ff\	[4ff\
.	24A\	.	.	.	.	.	.	.	.	.	.	.	.	.
.	24F\	.	.	.	.	.	.	.	.	.	.	.	.	.
.	24c\	.	.	.	.	.	.	.	.	.	.	.	.	.
.	24A\	.	.	.	.	.	.	.	.	.	.	.	.	.
.	24F\JJ	.	.	.	.	.	.	.	.	.	.	.	.	.
4A\	24c\LL	4F/)	.	(16f/LL]	.	.	.	4r	4r	16A\LL]	16f\LL]	4cc\)	.	(16ff\LL]
.	24A\	.	.	.	.	.	.	.	.	.	.	.	.	.
.	.	.	.	16f/	.	.	.	.	.	(16F\	(16F\	.	.	16ff\
.	24F\	.	.	.	.	.	.	.	.	.	.	.	.	.
.	24c\	.	.	16a/	.	.	.	.	.	16A\	16A\	.	.	16aa\
.	24A\	.	.	.	.	.	.	.	.	.	.	.	.	.
.	.	.	.	16cc/JJ)	.	.	.	.	.	16c\JJ)	16c\JJ)	.	.	16ccc\JJ)
.	24F\JJ	.	.	.	.	.	.	.	.	.	.	.	.	.
=23	=23	=23	=23	=23	=23	=23	=23	=23	=23	=23	=23	=23	=23	=23
2Ez\	24cz\LL	4Cz/	2gz/	(8.ccz\L	4C/	[2.cz/	[2.ccz\	(2cz/	(2gz\	4Ez\	4cz\	2bb-z\	2ggz\	(8.cccz\L
.	24B-\	.	.	.	.	.	.	.	.	.	.	.	.	.
.	24G\	.	.	.	.	.	.	.	.	.	.	.	.	.
.	24c\	.	.	.	.	.	.	.	.	.	.	.	.	.
.	24B-\	.	.	.	.	.	.	.	.	.	.	.	.	.
.	.	.	.	32dd\LLL	.	.	.	.	.	.	.	.	.	32ddd\LLL
.	24G\JJ	.	.	.	.	.	.	.	.	.	.	.	.	.
.	.	.	.	32cc\JJJ)	.	.	.	.	.	.	.	.	.	32ccc\JJJ)
.	24c\LL	4c\	.	(4b-\	4r	.	.	.	.	(4G\	(4B-\	.	.	(4bb-\
.	24B-\	.	.	.	.	.	.	.	.	.	.	.	.	.
.	24G\	.	.	.	.	.	.	.	.	.	.	.	.	.
.	24c\	.	.	.	.	.	.	.	.	.	.	.	.	.
.	24B-\	.	.	.	.	.	.	.	.	.	.	.	.	.
.	24G\JJ	.	.	.	.	.	.	.	.	.	.	.	.	.
4F\	24c\LL	4c\	4f/	4a/)	24C/LL	.	.	4f\)	4a\)	4F\)	4A\)	4aa\	4aa\	4aa\)
.	24A\	.	.	.	24C/	.	.	.	.	.	.	.	.	.
.	24F\	.	.	.	24C/	.	.	.	.	.	.	.	.	.
.	24c\	.	.	.	24C/	.	.	.	.	.	.	.	.	.
.	24A\	.	.	.	24C/	.	.	.	.	.	.	.	.	.
.	24F\JJ	.	.	.	24C/JJ	.	.	.	.	.	.	.	.	.
=24	=24	=24	=24	=24	=24	=24	=24	=24	=24	=24	=24	=24	=24	=24
2C/	24C\LL	2c\	(8..a/L	(8..cc/L	4C/	4c/]	4cc\]	(4f\	(4a\	(4F\	(4A\	(8..aa\L	(8..ccc\L	(8..ccc\L
.	24F\	.	.	.	.	.	.	.	.	.	.	.	.	.
.	24A\	.	.	.	.	.	.	.	.	.	.	.	.	.
.	24c\	.	.	.	.	.	.	.	.	.	.	.	.	.
.	24A\	.	.	.	.	.	.	.	.	.	.	.	.	.
.	24F\JJ	.	.	.	.	.	.	.	.	.	.	.	.	.
.	.	.	32f/Jkk)	32a/Jkk)	.	.	.	.	.	.	.	32ff\Jkk)	32aa\Jkk)	32aa\Jkk)
.	24C/LL	.	8e/	8g/	4r	4r	4r	8c/)	8g\)	4E\)	4G\)	8ee\	8gg\	8gg\
.	24C/	.	.	.	.	.	.	.	.	.	.	.	.	.
.	24BB/	.	.	.	.	.	.	.	.	.	.	.	.	.
.	24C/	.	8r	8r	.	.	.	8r	8r	.	.	8r	8r	8r
.	24GG/	.	.	.	.	.	.	.	.	.	.	.	.	.
.	24EE/JJ	.	.	.	.	.	.	.	.	.	.	.	.	.
4r	8CC/	4r	4r	4r	4r	4r	4r	24C/LL	24c/LL	4r	4r	4r	4r	4r
.	.	.	.	.	.	.	.	24C/	24c/	.	.	.	.	.
.	.	.	.	.	.	.	.	24C/	24c/	.	.	.	.	.
.	8r	.	.	.	.	.	.	24C/	24c/	.	.	.	.	.
.	.	.	.	.	.	.	.	24C/	24c/	.	.	.	.	.
.	.	.	.	.	.	.	.	24C/JJ	24c/JJ	.	.	.	.	.
=25	=25	=25	=25	=25	=25	=25	=25	=25	=25	=25	=25	=25	=25	=25
2.r	4c\	4c\	4e-/	(24g\LL	2.r	2.r	2.r	4C/	4c/	2.r	2.r	2.r	4ee-\	(24g\LL
.	.	.	.	24ee-\	.	.	.	.	.	.	.	.	.	24ee-\
.	.	.	.	24dd\)	.	.	.	.	.	.	.	.	.	24dd\)
.	.	.	.	(24cc\	.	.	.	.	.	.	.	.	.	(24cc\
.	.	.	.	24b\	.	.	.	.	.	.	.	.	.	24b\
.	.	.	.	24cc\JJ)	.	.	.	.	.	.	.	.	.	24cc\JJ)
.	2dz\	2dz\	2fz/	24bz'\LL	.	.	.	4r	4r	.	.	.	2b\	24bz\LL
.	.	.	.	24dd'\	.	.	.	.	.	.	.	.	.	24dd'\
.	.	.	.	24ff'\	.	.	.	.	.	.	.	.	.	24ff'\
.	.	.	.	24gg'\	.	.	.	.	.	.	.	.	.	24gg'\
.	.	.	.	24aa-'\	.	.	.	.	.	.	.	.	.	24aa-'\
.	.	.	.	24gg'\JJ	.	.	.	.	.	.	.	.	.	24gg'\JJ
.	.	.	.	24ff'\LL	.	.	.	4r	4r	.	.	.	.	24ff'\LL
.	.	.	.	24ee-'\	.	.	.	.	.	.	.	.	.	24ee-'\
.	.	.	.	24dd'\	.	.	.	.	.	.	.	.	.	24dd'\
.	.	.	.	24cc'\	.	.	.	.	.	.	.	.	.	24cc'\
.	.	.	.	24b'\	.	.	.	.	.	.	.	.	.	24b'\
.	.	.	.	24dd'\JJ	.	.	.	.	.	.	.	.	.	24dd'\JJ
=26	=26	=26	=26	=26	=26	=26	=26	=26	=26	=26	=26	=26	=26	=26
2.r	2e-\	2e-\	2g/	(24dd\LL	4r	4r	4r	2.r	2.r	2.r	2r	2r	[2cc\	(24dd\LL
.	.	.	.	24b\	.	.	.	.	.	.	.	.	.	24b\
.	.	.	.	24cc\)	.	.	.	.	.	.	.	.	.	24cc\)
.	.	.	.	24ee-'\	.	.	.	.	.	.	.	.	.	24ee-'\
.	.	.	.	24gg'\	.	.	.	.	.	.	.	.	.	24gg'\
.	.	.	.	24bb'\JJ	.	.	.	.	.	.	.	.	.	24bb'\JJ
.	.	.	.	(24ccc\LL	4r	4r	4r	.	.	.	.	.	.	(24ccc\LL
.	.	.	.	24gg\)	.	.	.	.	.	.	.	.	.	24gg\)
.	.	.	.	24bb'\	.	.	.	.	.	.	.	.	.	24bb'\
.	.	.	.	(24ccc\	.	.	.	.	.	.	.	.	.	(24ccc\
.	.	.	.	24gg\)	.	.	.	.	.	.	.	.	.	24gg\)
.	.	.	.	24ccc'\JJ	.	.	.	.	.	.	.	.	.	24ccc'\JJ
.	4r	4r	4r	8eee-'\	24C/LL	24c/LL	24g/LL	.	.	.	24r	24r	24cc\LL]	8eee-'\
.	.	.	.	.	24C/	24c/	24g/	.	.	.	24c\LL	24g/LL	24ee-\	.
.	.	.	.	.	24C/	24c/	24g/	.	.	.	24c\	24g/	24ee-\	.
.	.	.	.	8r	24C/	24c/	24g/	.	.	.	24c\	24g/	24ee-\	8r
.	.	.	.	.	24C/	24c/	24g/	.	.	.	24c\	24g/	24ee-\	.
.	.	.	.	.	24C/JJ	24c/JJ	24g/JJ	.	.	.	24c\JJ	24g/JJ	24ee-\JJ	.
=27	=27	=27	=27	=27	=27	=27	=27	=27	=27	=27	=27	=27	=27	=27
2.B-\	2.B-\	2.e/ 2.G/	2.d-/	24ee'\LL	24C/LL	2G/	2g/	(2.g\	(2.g\	2.d-\	2.d-\	2.g/	2.ee\	24ee'\LL
.	.	.	.	24ddd-'\	24C/	.	.	.	.	.	.	.	.	24ddd-'\
.	.	.	.	24ccc'\	24C/	.	.	.	.	.	.	.	.	24ccc'\
.	.	.	.	24bb-'\	24C/	.	.	.	.	.	.	.	.	24bb-'\
.	.	.	.	24aa-'\	24C/	.	.	.	.	.	.	.	.	24aa-'\
.	.	.	.	24gg'\JJ	24C/JJ	.	.	.	.	.	.	.	.	24gg'\JJ
.	.	.	.	(24ff\LL	24C/LL	.	.	.	.	.	.	.	.	(24ff\LL
.	.	.	.	24ee\	24C/	.	.	.	.	.	.	.	.	24ee\
.	.	.	.	24gg\)	24C/	.	.	.	.	.	.	.	.	24gg\)
.	.	.	.	24dd-'\	24C/	.	.	.	.	.	.	.	.	24dd-'\
.	.	.	.	24cc'\	24C/	.	.	.	.	.	.	.	.	24cc'\
.	.	.	.	24b-'\JJ	24C/JJ	.	.	.	.	.	.	.	.	24b-'\JJ
.	.	.	.	24a-'/LL	24C/LL	4r	4r	.	.	.	.	.	.	24a-'/LL
.	.	.	.	24g'/	24C/	.	.	.	.	.	.	.	.	24g'/
.	.	.	.	24f'/	24C/	.	.	.	.	.	.	.	.	24f'/
.	.	.	.	24e'/	24C/	.	.	.	.	.	.	.	.	24e'/
.	.	.	.	24dd-'/	24C/	.	.	.	.	.	.	.	.	24dd-'/
.	.	.	.	24e'/JJ	24C/JJ	.	.	.	.	.	.	.	.	24e'/JJ
=28	=28	=28	=28	=28	=28	=28	=28	=28	=28	=28	=28	=28	=28	=28
2.B\	2.B\	2.d\	2.d/	24f'/LL	4FF/	2.r	2.r	4f\)	4f\)	8A-\	8A-\	(8a-/L	(8ff\L	24f'/LL
.	.	.	.	24dd'/	.	.	.	.	.	.	.	.	.	24dd'/
.	.	.	.	24f'/	.	.	.	.	.	.	.	.	.	24f'/
.	.	.	.	24g'/	.	.	.	.	.	8r	8r	8g/	8gg\	24g'/
.	.	.	.	24dd'/	.	.	.	.	.	.	.	.	.	24dd'/
.	.	.	.	24g'/JJ	.	.	.	.	.	.	.	.	.	24g'/JJ
.	.	.	.	24a-'/LL	4r	.	.	4r	4r	4r	4r	8f/	8aa-\	24a-'/LL
.	.	.	.	24dd'/	.	.	.	.	.	.	.	.	.	24dd'/
.	.	.	.	24a-'/	.	.	.	.	.	.	.	.	.	24a-'/
.	.	.	.	24g'/	.	.	.	.	.	.	.	8g/)	8gg\)	24g'/
.	.	.	.	24dd'/	.	.	.	.	.	.	.	.	.	24dd'/
.	.	.	.	24g'/JJ	.	.	.	.	.	.	.	.	.	24g'/JJ
.	.	.	.	(24f/LL	4r	.	.	4r	4r	4r	4r	8a-/	8ff\	(24f/LL
.	.	.	.	24a-/)	.	.	.	.	.	.	.	.	.	24a-/)
.	.	.	.	24dd'/	.	.	.	.	.	.	.	.	.	24dd'/
.	.	.	.	(24f/	.	.	.	.	.	.	.	8g/J	8ff\J	(24f/
.	.	.	.	24g/)	.	.	.	.	.	.	.	.	.	24g/)
.	.	.	.	24dd'/JJ	.	.	.	.	.	.	.	.	.	24dd'/JJ
*	*	*	*	*	*	*	*	*	*	*clefC4	*clefC4	*	*	*
=29	=29	=29	=29	=29	=29	=29	=29	=29	=29	=29	=29	=29	=29	=29
8c\L	8c\L	8c/L	(24e/LL	(24e/LL	4C/	8ee\L	8gg\L	8c/L	8g\L	8e\L	8g\L	8g/L	8ee\L	(24e/LL
.	.	.	24g/)	24g/)	.	.	.	.	.	.	.	.	.	24g/)
.	.	.	24cc'/	24cc'/	.	.	.	.	.	.	.	.	.	24cc'/
8F\J	8F\J	8F/J	(24a/	(24a/	.	8dd\J	8ff\J	8f/J	8a\J	8d\J	8f\J	8a/J	(24dd\LL	(24a/
.	.	.	24f/)	24dd/)	.	.	.	.	.	.	.	.	24ff\	24dd/)
.	.	.	24d'/JJ	24ff'/JJ	.	.	.	.	.	.	.	.	24aa\JJ)	24ff'/JJ
4G\	4G\	4G/	4e/ 4c/	(24g\LL	4r	(4cc\	(4ee\	2g\	2g\	(4c\	(4e\	(4e/	(4cc\	(24g\LL
.	.	.	.	24cc\	.	.	.	.	.	.	.	.	.	24cc\
.	.	.	.	24ee\)	.	.	.	.	.	.	.	.	.	24ee\)
.	.	.	.	24gg'\	.	.	.	.	.	.	.	.	.	24gg'\
.	.	.	.	24gg'\	.	.	.	.	.	.	.	.	.	24gg'\
.	.	.	.	24gg'\JJ	.	.	.	.	.	.	.	.	.	24gg'\JJ
4GG/	4GG/	(8..F/L	4d/ 4B/	(24gg\LL	4r	4g/)	4dd\)	.	.	4B\)	4d\)	4f/)	4b\)	(24gg\LL
.	.	.	.	24ff#\	.	.	.	.	.	.	.	.	.	24ff#\
.	.	.	.	24ff\)	.	.	.	.	.	.	.	.	.	24ff\)
.	.	.	.	(24ee\	.	.	.	.	.	.	.	.	.	(24ee\
.	.	.	.	24ff\)	.	.	.	.	.	.	.	.	.	24ff\)
.	.	.	.	24b'\JJ	.	.	.	.	.	.	.	.	.	24b'\JJ
.	.	32D/Jkk)	.	.	.	.	.	.	.	.	.	.	.	.
=30	=30	=30	=30	=30	=30	=30	=30	=30	=30	=30	=30	=30	=30	=30
8C/	24C\LL	[2.C/	(2e/ (2G/	(8dd\L	4C/	4e/	4cc\	4c/	4g\	4c\	4c\	4e/	(8dd\L	(8dd\L
.	24E\	.	.	.	.	.	.	.	.	.	.	.	.	.
.	24G\	.	.	.	.	.	.	.	.	.	.	.	.	.
8r	24C\	.	.	8cc\J)	.	.	.	.	.	.	.	.	8cc\J)	8cc\J)
.	24E\	.	.	.	.	.	.	.	.	.	.	.	.	.
.	24G\JJ	.	.	.	.	.	.	.	.	.	.	.	.	.
8C/	24C\LL	.	.	24r	4r	4r	4r	4r	4r	4r	4r	4r	4r	24r
.	24E\	.	.	24eee'\LL	.	.	.	.	.	.	.	.	.	24eee'\LL
.	24G\	.	.	24ddd'\	.	.	.	.	.	.	.	.	.	24ddd'\
8r	24C\	.	.	24ccc'\	.	.	.	.	.	.	.	.	.	24ccc'\
.	24E\	.	.	24bb'\	.	.	.	.	.	.	.	.	.	24bb'\
.	24G\JJ	.	.	24aa'\JJ	.	.	.	.	.	.	.	.	.	24aa'\JJ
*	*	*	*	*	*	*	*	*	*	*	*clefF4	*	*	*
8C/	24C\LL	.	4f/) 4A-/)	(24gg\LL	24C/LL	4r	(4dd\	4r	4r	4r	(8..B\L	(4b\	(4ff\	(24gg\LL
.	24F\	.	.	24ff\)	24C/	.	.	.	.	.	.	.	.	24ff\)
.	24A-\	.	.	24dd'\	24C/	.	.	.	.	.	.	.	.	24dd'\
8r	24C\	.	.	(24ff\	24C/	.	.	.	.	.	.	.	.	(24ff\
.	24F\	.	.	24dd\)	24C/	.	.	.	.	.	.	.	.	24dd\)
.	24A-\JJ	.	.	24b'\JJ	24C/JJ	.	.	.	.	.	.	.	.	24b'\JJ
.	.	.	.	.	.	.	.	.	.	.	32d\Jkk)	.	.	.
=31	=31	=31	=31	=31	=31	=31	=31	=31	=31	=31	=31	=31	=31	=31
8C/	24C\LL	2.C_/	(2e/ (2G/	(24b\LL	4C/	[2.c/	4cc\)	[2.C/	[2.c/	2.r	4c\	4cc\)	4ee\)	(24b\LL
.	24E\	.	.	24cc\)	.	.	.	.	.	.	.	.	.	24cc\)
.	24G\	.	.	24ee'\	.	.	.	.	.	.	.	.	.	24ee'\
8r	24E\	.	.	(24gg\	.	.	.	.	.	.	.	.	.	(24gg\
.	24C\	.	.	24bb\)	.	.	.	.	.	.	.	.	.	24bb\)
.	24G\JJ	.	.	24ccc'\JJ	.	.	.	.	.	.	.	.	.	24ccc'\JJ
8C/	24C\LL	.	.	24eee'\LL	4r	.	4r	.	.	.	4r	4r	4r	24eee'\LL
.	24E\	.	.	24ddd'\	.	.	.	.	.	.	.	.	.	24ddd'\
.	24G\	.	.	24ccc'\	.	.	.	.	.	.	.	.	.	24ccc'\
8r	24C\	.	.	24bb'\	.	.	.	.	.	.	.	.	.	24bb'\
.	24E\	.	.	24aa'\	.	.	.	.	.	.	.	.	.	24aa'\
.	24G\JJ	.	.	24gg'\JJ	.	.	.	.	.	.	.	.	.	24gg'\JJ
8C/	24C\LL	.	4f/) 4A-/)	(24ff\LL	24C/LL	.	4dd\	.	.	.	(8..B\L	4b\	4ff\	(24ff\LL
.	24F\	.	.	24dd\)	24C/	.	.	.	.	.	.	.	.	24dd\)
.	24A-\	.	.	24b'\	24C/	.	.	.	.	.	.	.	.	24b'\
8r	24C\	.	.	(24aa-\	24C/	.	.	.	.	.	.	.	.	(24aa-\
.	24F\	.	.	24ff\)	24C/	.	.	.	.	.	.	.	.	24ff\)
.	24A-\JJ	.	.	24b'\JJ	24C/JJ	.	.	.	.	.	.	.	.	24b'\JJ
.	.	.	.	.	.	.	.	.	.	.	32d\Jkk)	.	.	.
=32	=32	=32	=32	=32	=32	=32	=32	=32	=32	=32	=32	=32	=32	=32
4.C/	(4A-\	4.C/]	(4f/	(4b\	4C/	4c_/	(4dd\	4C_/	4c_/	2.r	(4d\	(4b\	(4ff\	(4b\
.	8G\)	.	8e/)	8cc\)	4r	8c/]	8ee\)	8C/]	8c/]	.	8c\)	8cc\)	8ee\)	8cc\)
8r	8r	8r	8r	8r	.	8r	8r	8r	8r	.	8r	8r	8r	8r
4r	4r	4r	4r	4r	4r	4r	4r	4r	4r	.	4r	4r	4r	4r
=33	=33	=33	=33	=33	=33	=33	=33	=33	=33	=33	=33	=33	=33	=33
2A-\	2A-\	2e-\	2c/	8a-/L	2.r	2.r	2.r	2.r	2.r	2.r	2.r	2.r	2.r	2.r
.	.	.	.	16.a-/LL)	.	.	.	.	.	.	.	.	.	.
.	.	.	.	32cc/JJk	.	.	.	.	.	.	.	.	.	.
.	.	.	.	(8..ee-\L	.	.	.	.	.	.	.	.	.	.
.	.	.	.	32cc\Jkk)	.	.	.	.	.	.	.	.	.	.
4A-z\	4A-z\	(8..dz\L	4c-z/	(8..ffz\L	.	.	.	.	.	.	.	.	.	.
.	.	32f\Jkk)	.	32dd\Jkk)	.	.	.	.	.	.	.	.	.	.
=34	=34	=34	=34	=34	=34	=34	=34	=34	=34	=34	=34	=34	=34	=34
2G\	2G\	2.e-\	[4B-/	(24ee-\LL	2.r	2.r	2.r	2.r	2.r	2.r	2.r	2.r	2.r	2.r
.	.	.	.	24ee-\	.	.	.	.	.	.	.	.	.	.
.	.	.	.	24gg\)	.	.	.	.	.	.	.	.	.	.
.	.	.	.	(24bb-\	.	.	.	.	.	.	.	.	.	.
.	.	.	.	24gg\	.	.	.	.	.	.	.	.	.	.
.	.	.	.	24ee-\JJ)	.	.	.	.	.	.	.	.	.	.
.	.	.	24B-/LL]	(4dd-\	.	.	.	.	.	.	.	.	.	.
.	.	.	(24B-/	.	.	.	.	.	.	.	.	.	.	.
.	.	.	24d-/)	.	.	.	.	.	.	.	.	.	.	.
.	.	.	(24f/	.	.	.	.	.	.	.	.	.	.	.
.	.	.	24d-/	.	.	.	.	.	.	.	.	.	.	.
.	.	.	24B-/JJ)	.	.	.	.	.	.	.	.	.	.	.
4A-\	4A-\	.	(24A-/LL	4cc\)	.	.	.	.	.	.	.	.	.	.
.	.	.	24c/	.	.	.	.	.	.	.	.	.	.	.
.	.	.	24f/)	.	.	.	.	.	.	.	.	.	.	.
.	.	.	(24e-/	.	.	.	.	.	.	.	.	.	.	.
.	.	.	24c/	.	.	.	.	.	.	.	.	.	.	.
.	.	.	24A-/JJ)	.	.	.	.	.	.	.	.	.	.	.
=35	=35	=35	=35	=35	=35	=35	=35	=35	=35	=35	=35	=35	=35	=35
4D-\	4D-\	4f\	4f/	(24b-\LL	2.r	2.r	2.r	2.r	2.r	2.r	2.r	2.r	2.r	2.r
.	.	.	.	24b-\	.	.	.	.	.	.	.	.	.	.
.	.	.	.	24gg-\)	.	.	.	.	.	.	.	.	.	.
.	.	.	.	(24ff\	.	.	.	.	.	.	.	.	.	.
.	.	.	.	24dd-\	.	.	.	.	.	.	.	.	.	.
.	.	.	.	24b-\JJ)	.	.	.	.	.	.	.	.	.	.
4E-\	4E-\	4a-\	4c/	(24a-/LL	.	.	.	.	.	.	.	.	.	.
.	.	.	.	24e-/	.	.	.	.	.	.	.	.	.	.
.	.	.	.	24cc/JJ)	.	.	.	.	.	.	.	.	.	.
.	.	.	.	[8ee-/J	.	.	.	.	.	.	.	.	.	.
4EE-/	4E-\	4g\	(8..d-/L	(24ee-\LL]	.	.	.	.	.	.	.	.	.	.
.	.	.	.	24dd-\	.	.	.	.	.	.	.	.	.	.
.	.	.	.	24ff\)	.	.	.	.	.	.	.	.	.	.
.	.	.	.	(24dd-\	.	.	.	.	.	.	.	.	.	.
.	.	.	.	24b-\	.	.	.	.	.	.	.	.	.	.
.	.	.	.	24g\JJ)	.	.	.	.	.	.	.	.	.	.
.	.	.	32B-/Jkk)	.	.	.	.	.	.	.	.	.	.	.
=36	=36	=36	=36	=36	=36	=36	=36	=36	=36	=36	=36	=36	=36	=36
8AA-/	2.A-\	2.e-\ 2.c\	24A-/LL	(8b-/L	2.r	2.r	2.r	2.r	2.r	2.r	2.r	[2.ee-\	[2.aa-\	2.ccc\
.	.	.	24c/	.	.	.	.	.	.	.	.	.	.	.
.	.	.	24e-/	.	.	.	.	.	.	.	.	.	.	.
8r	.	.	24A-/	8a-/J)	.	.	.	.	.	.	.	.	.	.
.	.	.	24c/	.	.	.	.	.	.	.	.	.	.	.
.	.	.	24e-/JJ	.	.	.	.	.	.	.	.	.	.	.
8AA-/	.	.	24A-/LL	24r	.	.	.	.	.	.	.	.	.	.
.	.	.	24c/	24eee-'\LL	.	.	.	.	.	.	.	.	.	.
.	.	.	24e-/	24ddd-'\	.	.	.	.	.	.	.	.	.	.
8r	.	.	24A-/	24ccc'\	.	.	.	.	.	.	.	.	.	.
.	.	.	24c/	24bb-'\	.	.	.	.	.	.	.	.	.	.
.	.	.	24e-/JJ	24aa-'\JJ	.	.	.	.	.	.	.	.	.	.
8AA-/	.	.	24A-/LL	24gg'\LL	.	.	.	.	.	.	.	.	.	.
.	.	.	24c/	24ff'\	.	.	.	.	.	.	.	.	.	.
.	.	.	24e-/	24ee-'\	.	.	.	.	.	.	.	.	.	.
8r	.	.	24A-/	24dd-'\	.	.	.	.	.	.	.	.	.	.
.	.	.	24c/	24cc'\	.	.	.	.	.	.	.	.	.	.
.	.	.	24e-/JJ	24b-'\JJ	.	.	.	.	.	.	.	.	.	.
*	*	*	*	*	*	*	*	*	*	*	*clefC4	*	*	*
=37	=37	=37	=37	=37	=37	=37	=37	=37	=37	=37	=37	=37	=37	=37
8BB-/	2B-\	2e-/ 2G/	24B-/LL	(8a-/L	2.r	2.r	2.r	2.r	2.r	2.r	2.r	2ee-\]	(8aa-\L]	(2.ddd-\
.	.	.	24d-/	.	.	.	.	.	.	.	.	.	.	.
.	.	.	24e-/	.	.	.	.	.	.	.	.	.	.	.
8r	.	.	24B-/	8g/J)	.	.	.	.	.	.	.	.	8gg\J)	.
.	.	.	24d-/	.	.	.	.	.	.	.	.	.	.	.
.	.	.	24e-/JJ	.	.	.	.	.	.	.	.	.	.	.
8BB-/	.	.	24B-/LL	24r	.	.	.	.	.	.	.	.	[2gg\	.
.	.	.	24d-/	24eee-'\LL	.	.	.	.	.	.	.	.	.	.
.	.	.	24g/	24ddd-'\	.	.	.	.	.	.	.	.	.	.
8r	.	.	24b-/	24ccc'\	.	.	.	.	.	.	.	.	.	.
.	.	.	24dd-/	24bb-'\	.	.	.	.	.	.	.	.	.	.
.	.	.	24cc/JJ	24aa-'\JJ	.	.	.	.	.	.	.	.	.	.
8BB-/	4G\	4e\	(24b-/LL	(24gg\LL	.	.	.	.	.	.	.	[4ee\	.	.
.	.	.	24a-/)	24ff\)	.	.	.	.	.	.	.	.	.	.
.	.	.	24g'/	24ee'\	.	.	.	.	.	.	.	.	.	.
8r	.	.	24g'/	24ee'\	.	.	.	.	.	.	.	.	.	.
.	.	.	24g'/	24ee'\	.	.	.	.	.	.	.	.	.	.
.	.	.	24g'/JJ	24ee'\JJ	.	.	.	.	.	.	.	.	.	.
=38	=38	=38	=38	=38	=38	=38	=38	=38	=38	=38	=38	=38	=38	=38
2AA/	(4C#/	(4c#\ (4g/	24A'/LL	(4ee\	2.r	2.r	2.r	2.r	2.r	(4c#z\	(4ez\	(4ee\]	(4gg\]	(4ccc#\)
.	.	.	24c#'/	.	.	.	.	.	.	.	.	.	.	.
.	.	.	24e'/	.	.	.	.	.	.	.	.	.	.	.
.	.	.	24g'/	.	.	.	.	.	.	.	.	.	.	.
.	.	.	24e'/	.	.	.	.	.	.	.	.	.	.	.
.	.	.	24c#'/JJ	.	.	.	.	.	.	.	.	.	.	.
.	4AA/)	4d\) 4f/)	24A/LL	8ff\)	.	.	.	.	.	4d\)	4f\)	4dd\)	4ff\)	4ddd\)
.	.	.	24d/	.	.	.	.	.	.	.	.	.	.	.
.	.	.	24f/	.	.	.	.	.	.	.	.	.	.	.
.	.	.	24A/	8r	.	.	.	.	.	.	.	.	.	.
.	.	.	24d/	.	.	.	.	.	.	.	.	.	.	.
.	.	.	24f/JJ	.	.	.	.	.	.	.	.	.	.	.
4AA-/	4AA-/	4d\ 4f/	24A-/LL	24r	.	.	.	.	.	4d\	4f\	4dd\	4ff\	4ccc\
.	.	.	24d/	24ff'\LL	.	.	.	.	.	.	.	.	.	.
.	.	.	24f/	24ff'\	.	.	.	.	.	.	.	.	.	.
.	.	.	24A-/	(24ff\	.	.	.	.	.	.	.	.	.	.
.	.	.	24d/	24ccc\)	.	.	.	.	.	.	.	.	.	.
.	.	.	24f/JJ	24ccc'\JJ	.	.	.	.	.	.	.	.	.	.
=39	=39	=39	=39	=39	=39	=39	=39	=39	=39	=39	=39	=39	=39	=39
2.GG/	2.GG/	2.B\ 2.f/	24G/LL	(24ccc\LL	2.r	2.g/	2.dd\	2.r	2.r	2.B\	2.f\	2.dd\	2.ff\	2.bb\
.	.	.	24d/	24bb\	.	.	.	.	.	.	.	.	.	.
.	.	.	24f/	24ddd\JJ)	.	.	.	.	.	.	.	.	.	.
.	.	.	24G/	[8aa-\J	.	.	.	.	.	.	.	.	.	.
.	.	.	24d/	.	.	.	.	.	.	.	.	.	.	.
.	.	.	24f/JJ	.	.	.	.	.	.	.	.	.	.	.
.	.	.	24G/LL	24aa-\LL]	.	.	.	.	.	.	.	.	.	.
.	.	.	24d/	24gg'\	.	.	.	.	.	.	.	.	.	.
.	.	.	24f/	24ff'\	.	.	.	.	.	.	.	.	.	.
.	.	.	24G/	24ee-'\	.	.	.	.	.	.	.	.	.	.
.	.	.	24d/	24dd'\	.	.	.	.	.	.	.	.	.	.
.	.	.	24f/JJ	24cc'\JJ	.	.	.	.	.	.	.	.	.	.
.	.	.	24G/LL	(24cc\LL	.	.	.	.	.	.	.	.	.	.
.	.	.	24d/	24b\)	.	.	.	.	.	.	.	.	.	.
.	.	.	24f/	24dd'\	.	.	.	.	.	.	.	.	.	.
.	.	.	24G/	(24ff\	.	.	.	.	.	.	.	.	.	.
.	.	.	24d/	24aa-\)	.	.	.	.	.	.	.	.	.	.
.	.	.	24f/JJ	24b'\JJ	.	.	.	.	.	.	.	.	.	.
=40	=40	=40	=40	=40	=40	=40	=40	=40	=40	=40	=40	=40	=40	=40
8GG/	[2.G\	2.c\ 2.e-/	24G/LL	(24dd\LL	2.r	2.G/	2.cc\	2.r	2.r	2.c\	2.e-\	2.cc\	2.ee-\	2.ccc\
.	.	.	24c/	24cc\)	.	.	.	.	.	.	.	.	.	.
.	.	.	24e-/	24cc'\JJ	.	.	.	.	.	.	.	.	.	.
8r	.	.	24G/	8cc\J	.	.	.	.	.	.	.	.	.	.
.	.	.	24c/	.	.	.	.	.	.	.	.	.	.	.
.	.	.	24e-/JJ	.	.	.	.	.	.	.	.	.	.	.
8GG/	.	.	24G/LL	24r	.	.	.	.	.	.	.	.	.	.
.	.	.	24c/	24gg'\LL	.	.	.	.	.	.	.	.	.	.
.	.	.	24e-/	24ff'\	.	.	.	.	.	.	.	.	.	.
8r	.	.	24G/	24ee-'\	.	.	.	.	.	.	.	.	.	.
.	.	.	24c/	24dd'\	.	.	.	.	.	.	.	.	.	.
.	.	.	24e-/JJ	24cc'\JJ	.	.	.	.	.	.	.	.	.	.
8GG/	.	.	24G/LL	24ccc'\LL	.	.	.	.	.	.	.	.	.	.
.	.	.	24c/	24gg'\	.	.	.	.	.	.	.	.	.	.
.	.	.	24e-/	24ff'\	.	.	.	.	.	.	.	.	.	.
8r	.	.	24G/	24ee-'\	.	.	.	.	.	.	.	.	.	.
.	.	.	24c/	24dd'\	.	.	.	.	.	.	.	.	.	.
.	.	.	24e-/JJ	24cc'\JJ	.	.	.	.	.	.	.	.	.	.
=41	=41	=41	=41	=41	=41	=41	=41	=41	=41	=41	=41	=41	=41	=41
8G\	2.G\]	2.d-\ 2.e/	24G/LL	(24cc\LL	2.r	2.G/	2.ee\	2.r	2.r	2.B-\	2.e\	2dd-\	2.ee\	2.bb-\
.	.	.	24d-/	24b-\)	.	.	.	.	.	.	.	.	.	.
.	.	.	24e/	24b-'\JJ	.	.	.	.	.	.	.	.	.	.
8r	.	.	24G/	[8b-\J	.	.	.	.	.	.	.	.	.	.
.	.	.	24d-/	.	.	.	.	.	.	.	.	.	.	.
.	.	.	24e/JJ	.	.	.	.	.	.	.	.	.	.	.
8G\	.	.	24G/LL	24b-\LL]	.	.	.	.	.	.	.	.	.	.
.	.	.	24B-/	24dd-'\	.	.	.	.	.	.	.	.	.	.
.	.	.	24d-/	24cc'\	.	.	.	.	.	.	.	.	.	.
8r	.	.	24G/	24b-'\	.	.	.	.	.	.	.	.	.	.
.	.	.	24B-/	24a-'\	.	.	.	.	.	.	.	.	.	.
.	.	.	24d-/JJ	24g'\JJ	.	.	.	.	.	.	.	.	.	.
8G\	.	.	24G/LL	(24f/LL	.	.	.	.	.	.	.	4cc\	.	.
.	.	.	24B-/	24e/)	.	.	.	.	.	.	.	.	.	.
.	.	.	24c/	24e'/	.	.	.	.	.	.	.	.	.	.
8r	.	.	24G/	24e'/	.	.	.	.	.	.	.	.	.	.
.	.	.	24B-/	24e'/	.	.	.	.	.	.	.	.	.	.
.	.	.	24c/JJ	24e'/JJ	.	.	.	.	.	.	.	.	.	.
=42	=42	=42	=42	=42	=42	=42	=42	=42	=42	=42	=42	=42	=42	=42
!! In Pleyel, the 3rd, 6th, 9th, & 12th notes of m. 42 are Db4s not C4s.
8G\	8G\	8c\ 8e/	24G/LL	(24b-/LL	4r	8G/	8ee\	4r	4r	8B-\	8e\	8b-\	8ee\	8bb-\
.	.	.	24B-/	24e/)	.	.	.	.	.	.	.	.	.	.
.	.	.	24c/	24e'/	.	.	.	.	.	.	.	.	.	.
8r	8r	8r	24G/	24e'/	.	8r	8r	.	.	8r	8r	8r	8r	8r
.	.	.	24B-/	24e'/	.	.	.	.	.	.	.	.	.	.
.	.	.	24c/JJ	24e'/JJ	.	.	.	.	.	.	.	.	.	.
8G\	8G\	8c\ 8e/	24G/LL	(24dd-/LL	4r	4r	4r	4r	4r	8B-\	8e\	8b-\	8ee\	8bb-\
.	.	.	24B-/	24e/)	.	.	.	.	.	.	.	.	.	.
.	.	.	24c/	24e'/	.	.	.	.	.	.	.	.	.	.
8r	8r	8r	24G/	24e'/	.	.	.	.	.	8r	8r	8r	8r	8r
.	.	.	24B-/	24e'/	.	.	.	.	.	.	.	.	.	.
.	.	.	24c/JJ	24e'/JJ	.	.	.	.	.	.	.	.	.	.
24E\LL	24E\LL	24e\LL	24G/LL	(24ddd-\LL	24C/LL	24c/LL	24g/LL	24c/LL	24g\LL	24B-\LL	24g\LL	24gg\LL	24bb-\LL	(24ddd-\LL
24E\	24E\	24cc\	24b-/ 24g/	24ccc\)	24C/	24c/	24cc/	24c/	24g\	24B-\	24g\	24gg\	24bb-\	24ccc\)
24E\	24E\	24cc\	24b-/ 24g/	24ccc\	24C/	24c/	24cc/	24c/	24g\	24B-\	24g\	24gg\	24bb-\	24ccc\
24E\	24E\	24cc\	24b-/ 24g/	24ccc\	24C/	24c/	24cc/	24c/	24g\	24B-\	24g\	24gg\	24bb-\	24ccc\
24E\	24E\	24cc\	24b-/ 24g/	24ccc\	24C/	24c/	24cc/	24c/	24g\	24B-\	24g\	24gg\	24bb-\	24ccc\
24E\JJ	24E\JJ	24cc\JJ	24b-/JJ 24g/	24ccc\JJ	24C/JJ	24c/JJ	24cc/JJ	24c/JJ	24g\JJ	24B-\JJ	24g\JJ	24gg\JJ	24bb-\JJ	24ccc\JJ
=43	=43	=43	=43	=43	=43	=43	=43	=43	=43	=43	=43	=43	=43	=43
8E\	8E\	8cc\	8b-/ 8g/	8ccc\	8C/	8c/	8cc\	8c/	8g\	8B-\	8g\	8gg\	8bb-\	8ccc\
8r	8r	8r	8r	8r	8r	8r	8r	8r	8r	8r	8r	8r	8r	8r
4r	24e\LL	24g\LL	24b-\LL	(24dd-\LL	4r	4r	4r	4r	4r	4r	4r	4r	4r	4r
.	24e\	24g\	24b-\	24cc\)	.	.	.	.	.	.	.	.	.	.
.	24e\	24g\	24b-\	24cc\	.	.	.	.	.	.	.	.	.	.
.	24e\	24g\	24b-\	24cc\	.	.	.	.	.	.	.	.	.	.
.	24e\	24g\	24b-\	24cc\	.	.	.	.	.	.	.	.	.	.
.	24e\JJ	24g\JJ	24b-\JJ	24cc\JJ	.	.	.	.	.	.	.	.	.	.
4r	8e\	8g\	8b-\	8cc\	4r	4r	4r	4r	4r	4r	4r	4r	4r	4r
.	8r	8r	8r	8r	.	.	.	.	.	.	.	.	.	.
=44	=44	=44	=44	=44	=44	=44	=44	=44	=44	=44	=44	=44	=44	=44
2.r	8r	4r	8r	(24d-/LL	2.r	2.r	2.r	2.r	2.r	2.r	2.r	2.r	2.r	2.r
.	.	.	.	24c/)	.	.	.	.	.	.	.	.	.	.
.	.	.	.	24c/	.	.	.	.	.	.	.	.	.	.
.	24c\LL	.	24c/LL	24c/	.	.	.	.	.	.	.	.	.	.
.	24c\	.	24c/	24c/	.	.	.	.	.	.	.	.	.	.
.	24c\JJ	.	24c/JJ	24c/JJ	.	.	.	.	.	.	.	.	.	.
.	24B-\LL	8r	24c/LL	24d-/LL	.	.	.	.	.	.	.	.	.	.
.	24B-\	.	24c/	24d-/	.	.	.	.	.	.	.	.	.	.
.	24B-\	.	24c/	24d-/	.	.	.	.	.	.	.	.	.	.
.	24A\	24c\LL	24c/	24d/	.	.	.	.	.	.	.	.	.	.
.	24A\	24c\	24c/	24d/	.	.	.	.	.	.	.	.	.	.
.	24A\JJ	24c\JJ	24c/JJ	24d/JJ	.	.	.	.	.	.	.	.	.	.
.	24A-\LL	24c\LL	24c/LL	24e-/LL	.	.	.	.	.	.	.	.	.	.
.	24A-\	24c\	24c/	24e-/	.	.	.	.	.	.	.	.	.	.
.	24A-\	24c\	24c/	24e-/	.	.	.	.	.	.	.	.	.	.
.	24G\	24c\	24B-/	24e/	.	.	.	.	.	.	.	.	.	.
.	24G\	24c\	24B-/	24e/	.	.	.	.	.	.	.	.	.	.
.	24G\JJ	24c\JJ	24B-/JJ	24e/JJ	.	.	.	.	.	.	.	.	.	.
*	*	*	*	*	*	*	*	*	*	*clefF4	*clefF4	*	*	*
=45	=45	=45	=45	=45	=45	=45	=45	=45	=45	=45	=45	=45	=45	=45
2F\	24F\LL	2c\	2A/	8f/L	4FF/	2c/	2cc\	2A/	2f\	2A\	(4f\	2a/	2ff\	8ff\L
.	24A\	.	.	.	.	.	.	.	.	.	.	.	.	.
.	24c\	.	.	.	.	.	.	.	.	.	.	.	.	.
.	24F\	.	.	16.f/LL)	.	.	.	.	.	.	.	.	.	16.ff\LL)
.	24A\	.	.	.	.	.	.	.	.	.	.	.	.	.
.	24c\JJ	.	.	.	.	.	.	.	.	.	.	.	.	.
.	.	.	.	32a/JJk	.	.	.	.	.	.	.	.	.	32aa\JJk
.	24F\LL	.	.	(8..cc\L	4r	.	.	.	.	.	4c\)	.	.	(8..ccc\L
.	24A\	.	.	.	.	.	.	.	.	.	.	.	.	.
.	24c\	.	.	.	.	.	.	.	.	.	.	.	.	.
.	24F\	.	.	.	.	.	.	.	.	.	.	.	.	.
.	24A\	.	.	.	.	.	.	.	.	.	.	.	.	.
.	24c\JJ	.	.	.	.	.	.	.	.	.	.	.	.	.
.	.	.	.	32a\Jkk)	.	.	.	.	.	.	.	.	.	32aa\Jkk)
4Fz\	24Fz\LL	(8..Bz\L	4A-z/	(8..ddz\L	4FFz/	4r	4ddz\	4Fz/	4fz\	4A-z\	4Bz\	4a-z/	4bz\	(8..dddz\L
.	24A-\	.	.	.	.	.	.	.	.	.	.	.	.	.
.	24B\	.	.	.	.	.	.	.	.	.	.	.	.	.
.	24F\	.	.	.	.	.	.	.	.	.	.	.	.	.
.	24A-\	.	.	.	.	.	.	.	.	.	.	.	.	.
.	24B\JJ	.	.	.	.	.	.	.	.	.	.	.	.	.
.	.	32d\Jkk)	.	32b\Jkk)	.	.	.	.	.	.	.	.	.	32bb\Jkk)
=46	=46	=46	=46	=46	=46	=46	=46	=46	=46	=46	=46	=46	=46	=46
(2E\	[4E\	4c\	(8..G/L	(24cc\LL	4C/	2.c/	2.cc\	(2c/	(2g\	2G\	4c\	4g/	[2cc\	(24ccc\LL
.	.	.	.	24cc\	.	.	.	.	.	.	.	.	.	24ccc\
.	.	.	.	24ee\)	.	.	.	.	.	.	.	.	.	24eee\)
.	.	.	.	(24gg\	.	.	.	.	.	.	.	.	.	(24ggg\
.	.	.	.	24ee\	.	.	.	.	.	.	.	.	.	24eee\
.	.	.	.	24cc\JJ)	.	.	.	.	.	.	.	.	.	24ccc\JJ)
.	.	.	32c/Jkk)	.	.	.	.	.	.	.	.	.	.	.
.	(24E\LL]	(4G/	2c/	(4b-\	4r	.	.	.	.	.	(4B-\	(4b-\	.	(4bb-\
.	24G\	.	.	.	.	.	.	.	.	.	.	.	.	.
.	24B-\)	.	.	.	.	.	.	.	.	.	.	.	.	.
.	(24d\	.	.	.	.	.	.	.	.	.	.	.	.	.
.	24B-\	.	.	.	.	.	.	.	.	.	.	.	.	.
.	24G\JJ)	.	.	.	.	.	.	.	.	.	.	.	.	.
4F\)	(24F\LL	4A/)	.	4a/)	4r	.	.	4f\)	4a\)	4F\	4A\)	4a/)	8..cc\L]	4aa\)
.	24A\	.	.	.	.	.	.	.	.	.	.	.	.	.
.	24d\)	.	.	.	.	.	.	.	.	.	.	.	.	.
.	(24c\	.	.	.	.	.	.	.	.	.	.	.	.	.
.	24A\	.	.	.	.	.	.	.	.	.	.	.	.	.
.	24F\JJ)	.	.	.	.	.	.	.	.	.	.	.	.	.
.	.	.	.	.	.	.	.	.	.	.	.	.	32cc#\Jkk	.
=47	=47	=47	=47	=47	=47	=47	=47	=47	=47	=47	=47	=47	=47	=47
4BB-/	4B-\	4d\	4d/	(24g\LL	4r	4r	4r	4r	4r	4B-\	4d\	(8..g/L	(8..dd\L	(24gg\LL
.	.	.	.	24g\	.	.	.	.	.	.	.	.	.	24gg\
.	.	.	.	24ee-\)	.	.	.	.	.	.	.	.	.	24eee-\)
.	.	.	.	(24dd\	.	.	.	.	.	.	.	.	.	(24ddd\
.	.	.	.	24b-\	.	.	.	.	.	.	.	.	.	24bb-\
.	.	.	.	24g\JJ)	.	.	.	.	.	.	.	.	.	24gg\JJ)
.	.	.	.	.	.	.	.	.	.	.	.	32b-/Jkk)	32gg\Jkk)	.
4C/	4c\	(4c\	(4A/	(24f/LL	4C/	4c/	4cc\	(4A/	(4f\	(4c\	(4c\	(4a/	(4ff\	(24ff\LL
.	.	.	.	24c/	.	.	.	.	.	.	.	.	.	24cc\
.	.	.	.	24f/JJ)	.	.	.	.	.	.	.	.	.	24ff\JJ)
.	.	.	.	[8cc/J	.	.	.	.	.	.	.	.	.	[8ccc\J
4C/	4C/	4E/)	4B-/)	(24cc/LL]	24C/LL	4c/	4cc\	4c/)	4g\)	4B-\)	4e\)	4g/)	4ee\)	(24ccc\LL]
.	.	.	.	24b-/	24C/	.	.	.	.	.	.	.	.	24bb-\
.	.	.	.	24dd/)	24C/	.	.	.	.	.	.	.	.	24ddd\)
.	.	.	.	(24b-/	24C/	.	.	.	.	.	.	.	.	(24bb-\
.	.	.	.	24g/	24C/	.	.	.	.	.	.	.	.	24gg\
.	.	.	.	24e/JJ)	24C/JJ	.	.	.	.	.	.	.	.	24ee\JJ)
=48	=48	=48	=48	=48	=48	=48	=48	=48	=48	=48	=48	=48	=48	=48
4.FF/	4FF/	(4E/	(4B-/	(4g/	4FF/	4c/	4cc\	(4c/	(4g\	(4B-\	(4e\	(4b-\	(4ee\	(4gg\
.	8r	8F/)	8A/)	8f/)	8r	4r	4r	8f\)	8a\)	8A\)	8f\)	8a/)	8ff\)	8ff\)
(8FF/L	24A\LL	(8f'\L	(8f'/L	8r	8FF/L	.	.	8r	8r	(8A\L	(8A\L	(8a\L	(4ff\	8r
.	24F\	.	.	.	.	.	.	.	.	.	.	.	.	.
.	24A\JJ	.	.	.	.	.	.	.	.	.	.	.	.	.
8GG/	24B-\LL	8f'\	8f'/	4r	8FF/	4r	4r	4r	4r	8B-\	8B-\	8b-\	.	4r
.	24F\	.	.	.	.	.	.	.	.	.	.	.	.	.
.	24B-\	.	.	.	.	.	.	.	.	.	.	.	.	.
8AA/J)	24c\	8f'\J)	8f'/J)	.	8FF/J	.	.	.	.	8c\J)	8c\J)	8cc\J)	8ee-\)	.
.	24F\	.	.	.	.	.	.	.	.	.	.	.	.	.
.	24c\JJ	.	.	.	.	.	.	.	.	.	.	.	.	.
=49	=49	=49	=49	=49	=49	=49	=49	=49	=49	=49	=49	=49	=49	=49
2BB-/	24d\LL	2B-/	2f/	2dd\	4FF/	2.r	2.r	2f\	2f\	2d\	2d\	2f/	2dd\	2ddd\
.	24B-\	.	.	.	.	.	.	.	.	.	.	.	.	.
.	24F\	.	.	.	.	.	.	.	.	.	.	.	.	.
.	24d\	.	.	.	.	.	.	.	.	.	.	.	.	.
.	24B-\	.	.	.	.	.	.	.	.	.	.	.	.	.
.	24F\JJ	.	.	.	.	.	.	.	.	.	.	.	.	.
.	24d\LL	.	.	.	4r	.	.	.	.	.	.	.	.	.
.	24B-\	.	.	.	.	.	.	.	.	.	.	.	.	.
.	24F\	.	.	.	.	.	.	.	.	.	.	.	.	.
.	24d\	.	.	.	.	.	.	.	.	.	.	.	.	.
.	24B-\	.	.	.	.	.	.	.	.	.	.	.	.	.
.	24F\JJ	.	.	.	.	.	.	.	.	.	.	.	.	.
4AA/	24e-\LL	4c\	(8..f#/L	(8..ee-\L	4r	.	.	4c/	4c/	4c\	4c\	(8..f#/L	(8..ee-\L	(8..eee-\L
.	24c\	.	.	.	.	.	.	.	.	.	.	.	.	.
.	24F#\	.	.	.	.	.	.	.	.	.	.	.	.	.
.	24e-\	.	.	.	.	.	.	.	.	.	.	.	.	.
.	24c\	.	.	.	.	.	.	.	.	.	.	.	.	.
.	24F#\JJ	.	.	.	.	.	.	.	.	.	.	.	.	.
.	.	.	32c/Jkk)	32ee\Jkk)	.	.	.	.	.	.	.	32cc/Jkk)	32ee\Jkk)	32eee\Jkk)
=50	=50	=50	=50	=50	=50	=50	=50	=50	=50	=50	=50	=50	=50	=50
4AA-/	24d\LL	2d\	4B/	(4ff\	2.r	2.r	2.r	(4f\	(4f\	2d\	2d\	2b\	2ff\	(4fff\
.	24B\	.	.	.	.	.	.	.	.	.	.	.	.	.
.	24F\	.	.	.	.	.	.	.	.	.	.	.	.	.
.	24d\	.	.	.	.	.	.	.	.	.	.	.	.	.
.	24B\	.	.	.	.	.	.	.	.	.	.	.	.	.
.	24F\JJ	.	.	.	.	.	.	.	.	.	.	.	.	.
4GG/	24d\LL	.	4f/	4b\)	.	.	.	4g\)	4g\)	.	.	.	.	4bb\)
.	24B\	.	.	.	.	.	.	.	.	.	.	.	.	.
.	24F\	.	.	.	.	.	.	.	.	.	.	.	.	.
.	24d\	.	.	.	.	.	.	.	.	.	.	.	.	.
.	24B\	.	.	.	.	.	.	.	.	.	.	.	.	.
.	24F\JJ	.	.	.	.	.	.	.	.	.	.	.	.	.
4C/	24c\LL	[4G/	4e/	4cc\	.	.	.	4g\	4g\	[4G\	[4G\	4cc\	4ee\	4ccc\
.	24G\	.	.	.	.	.	.	.	.	.	.	.	.	.
.	24E\	.	.	.	.	.	.	.	.	.	.	.	.	.
.	24c\	.	.	.	.	.	.	.	.	.	.	.	.	.
.	24G\	.	.	.	.	.	.	.	.	.	.	.	.	.
.	24E\JJ	.	.	.	.	.	.	.	.	.	.	.	.	.
=51	=51	=51	=51	=51	=51	=51	=51	=51	=51	=51	=51	=51	=51	=51
4EE/	24c\LL	4G/]	(4c/	(4gg\	24C/LL	2.c/	2.cc\	(2c/	(2g\	(4G\]	(4G\]	2.cc\	(2b-\	(4ggg\
.	24B-\	.	.	.	24C/	.	.	.	.	.	.	.	.	.
.	24G\	.	.	.	24C/	.	.	.	.	.	.	.	.	.
.	24c\	.	.	.	24C/	.	.	.	.	.	.	.	.	.
.	24B-\	.	.	.	24C/	.	.	.	.	.	.	.	.	.
.	24G\JJ	.	.	.	24C/JJ	.	.	.	.	.	.	.	.	.
(4E\	24c\LL	4c\	4g/	4b-\	24C/LL	.	.	.	.	4e\	4e\	.	.	4bb-\
.	24B-\	.	.	.	24C/	.	.	.	.	.	.	.	.	.
.	24G\	.	.	.	24C/	.	.	.	.	.	.	.	.	.
.	24c\	.	.	.	24C/	.	.	.	.	.	.	.	.	.
.	24B-\	.	.	.	24C/	.	.	.	.	.	.	.	.	.
.	24G\JJ	.	.	.	24C/JJ	.	.	.	.	.	.	.	.	.
4F\)	24c\LL	4c\	4f/)	4a/)	8FF/	.	.	4f\)	4a\)	4f\)	4f\)	.	4a/)	4aa\)
.	24A\	.	.	.	.	.	.	.	.	.	.	.	.	.
.	24F\	.	.	.	.	.	.	.	.	.	.	.	.	.
.	24c\	.	.	.	8r	.	.	.	.	.	.	.	.	.
.	24A\	.	.	.	.	.	.	.	.	.	.	.	.	.
.	24F\JJ	.	.	.	.	.	.	.	.	.	.	.	.	.
=52	=52	=52	=52	=52	=52	=52	=52	=52	=52	=52	=52	=52	=52	=52
2BB-/	24d\LL	2c\	2e/ 2G/	(8.g/L	4r	(4e/	(4g/	4r	4r	2.c\	2.c\	2e/	2g/	(8.gg\L
.	24B-\	.	.	.	.	.	.	.	.	.	.	.	.	.
.	24G\	.	.	.	.	.	.	.	.	.	.	.	.	.
.	24E\	.	.	.	.	.	.	.	.	.	.	.	.	.
.	24G\	.	.	.	.	.	.	.	.	.	.	.	.	.
.	.	.	.	16g/Jk	.	.	.	.	.	.	.	.	.	16gg\Jk
.	24B-\JJ	.	.	.	.	.	.	.	.	.	.	.	.	.
.	24G\LL	.	.	4dd\)	4C/	4c/)	4cc\)	(4c/	(4g\	.	.	.	.	4ddd\)
.	24E\	.	.	.	.	.	.	.	.	.	.	.	.	.
.	24G\	.	.	.	.	.	.	.	.	.	.	.	.	.
.	24B-\	.	.	.	.	.	.	.	.	.	.	.	.	.
.	24d\	.	.	.	.	.	.	.	.	.	.	.	.	.
.	24E\JJ	.	.	.	.	.	.	.	.	.	.	.	.	.
4AA/	24F\LL	4F/	4f/ 4A/	(8..cc\L	4FF/	4c/	4cc\	4f\)	4a\)	.	.	4f/	(8..a\L	(8..ccc\L
.	24A\	.	.	.	.	.	.	.	.	.	.	.	.	.
.	24c\	.	.	.	.	.	.	.	.	.	.	.	.	.
.	24f\	.	.	.	.	.	.	.	.	.	.	.	.	.
.	24c\	.	.	.	.	.	.	.	.	.	.	.	.	.
.	24A\JJ	.	.	.	.	.	.	.	.	.	.	.	.	.
.	.	.	.	32ff\Jkk)	.	.	.	.	.	.	.	.	32ff\Jkk)	32fff\Jkk)
=53	=53	=53	=53	=53	=53	=53	=53	=53	=53	=53	=53	=53	=53	=53
4BB-/	24F\LL	4B-/	8..d/L	(24ff\LL	4r	4r	4r	4r	4r	(4B-\	(4B-\	8..f/L	8..dd\L	(24fff\LL
.	24B-\	.	.	24dd\)	.	.	.	.	.	.	.	.	.	24ddd\)
.	24d\	.	.	24b-'\	.	.	.	.	.	.	.	.	.	24bb-'\
.	24G\	.	.	(24dd\	.	.	.	.	.	.	.	.	.	(24ddd\
.	24B-\	.	.	24b-\)	.	.	.	.	.	.	.	.	.	24bb-\)
.	24d\JJ	.	.	24g'\JJ	.	.	.	.	.	.	.	.	.	24gg'\JJ
.	.	.	32B-/Jkk	.	.	.	.	.	.	.	.	32b-/Jkk	32gg\Jkk	.
4C/	24A\LL	(4c\	(4A/	8.f/L	4C/	2c/	2cc\	(4f\	(4a\	4c\)	4c\)	4a/	(4ff\	8.ff\L
.	24c\	.	.	.	.	.	.	.	.	.	.	.	.	.
.	24f\	.	.	.	.	.	.	.	.	.	.	.	.	.
.	24A\	.	.	.	.	.	.	.	.	.	.	.	.	.
.	24c\	.	.	.	.	.	.	.	.	.	.	.	.	.
.	.	.	.	16g/Jk	.	.	.	.	.	.	.	.	.	16gg\Jk
.	24f\JJ	.	.	.	.	.	.	.	.	.	.	.	.	.
4C/	24B-\LL	4e\)	4B-/)	4gTt/	4C/	.	.	4c/)	4g\)	4C/	4C/	(8g/L	4ee\)	4ggTt\
.	24c\	.	.	.	.	.	.	.	.	.	.	.	.	.
.	24e\	.	.	.	.	.	.	.	.	.	.	.	.	.
.	24B-\	.	.	.	.	.	.	.	.	.	.	8b-/J)	.	.
.	24c\	.	.	.	.	.	.	.	.	.	.	.	.	.
.	24e\JJ	.	.	.	.	.	.	.	.	.	.	.	.	.
=54	=54	=54	=54	=54	=54	=54	=54	=54	=54	=54	=54	=54	=54	=54
24D-\LL	24f\LL	24f\LL	24f/LL 24A-/	24f'\LL	24FF/LL	2.r	2.r	24F/LL	24f\LL	24D-\LL	24D-\LL	4a-/	4ff\	4ff\
24D-\	24f\	24d-\	24f/ 24A-/	24a-'\	24FF/	.	.	24F/	24f\	24D-\	24D-\	.	.	.
24D-\	24f\	24d-\	24f/ 24A-/	24cc'\	24FF/	.	.	24F/	24f\	24D-\	24D-\	.	.	.
24D-\	24f\	24d-\	24f/ 24A-/	24dd-'\	24FF/	.	.	24F/	24f\	24D-\	24D-\	.	.	.
24D-\	24f\	24d-\	24f/ 24A-/	24ff'\	24FF/	.	.	24F/	24f\	24D-\	24D-\	.	.	.
24D-\JJ	24f\JJ	24d-\JJ	24f/JJ 24A-/	24aa-'\JJ	24FF/JJ	.	.	24F/JJ	24f\JJ	24D-\JJ	24D-\JJ	.	.	.
8D-\	8f\	8d-\	24f/LL	24ddd-\LL	24FF/LL	.	.	8F/	8f\	8D-\	8D-\	4r	4r	4r
.	.	.	24a-/	24aa-\	24FF/	.	.	.	.	.	.	.	.	.
.	.	.	24g-/	24gg-\	24FF/	.	.	.	.	.	.	.	.	.
24r	24r	24r	24f/	24ff\	24FF/	.	.	8r	8r	24r	24r	.	.	.
24r	24r	24r	24e-/	24ee-\	24FF/	.	.	.	.	24r	24r	.	.	.
24d-\)	24d-\)	24dd-\)	24d-/JJ	24dd-\JJ	24FF/JJ	.	.	.	.	24d-\)	24d-\)	.	.	.
24c\LL	24c\LL	24cc\LL	24c/LL	24cc/LL	24FF/LL	.	.	4r	4r	24c\LL	24c\LL	4r	4r	4r
24B-\	24B-\	24b-\	24B-/	24b-/	24FF/	.	.	.	.	24B-\	24B-\	.	.	.
24A-\	24A-\	24a-\	24A-/	24a-/	24FF/	.	.	.	.	24A-\	24A-\	.	.	.
24G-\	24G-\	24g-\	24g-/	24g-/	24FF/	.	.	.	.	24G-\	24G-\	.	.	.
24F\	24F\	24f\	24f/	24f/	24FF/	.	.	.	.	24F\	24F\	.	.	.
24E-\JJ	24E-\JJ	24e-\JJ	24e-/JJ	24e-/JJ	24FF/JJ	.	.	.	.	24E-\JJ	24E-\JJ	.	.	.
=55	=55	=55	=55	=55	=55	=55	=55	=55	=55	=55	=55	=55	=55	=55
24D-\LL	24D-\LL	24d-\LL	24d-/LL	24d-/LL	24FF/LL	2.r	2.r	2.F/	2.f\	4D-\	4D-\	[2.ff\	2.aa-\	2.aa-\
24D-\	24D-\	24d-\	24f/	24f/	24FF/	.	.	.	.	.	.	.	.	.
24D-\	24D-\	24d-\	24f/	24a-/	24FF/	.	.	.	.	.	.	.	.	.
24D-\	24D-\	24d-\	24f/	24a-/	24FF/	.	.	.	.	.	.	.	.	.
24D-\	24D-\	24d-\	24f/	24a-/	24FF/	.	.	.	.	.	.	.	.	.
24D-\JJ	24D-\JJ	24d-\JJ	24f/JJ	24a-/JJ	24FF/JJ	.	.	.	.	.	.	.	.	.
24C/LL	24C/LL	24c\LL	24c/LL	24c/LL	24FF/LL	.	.	.	.	4C/	4C/	.	.	.
24C/	24C/	24c\	24f/	24f/	24FF/	.	.	.	.	.	.	.	.	.
24C/	24C/	24c\	24f/	24a-/	24FF/	.	.	.	.	.	.	.	.	.
24C/	24C/	24c\	24f/	24a-/	24FF/	.	.	.	.	.	.	.	.	.
24C/	24C/	24c\	24f/	24a-/	24FF/	.	.	.	.	.	.	.	.	.
24C/JJ	24C/JJ	24c\JJ	24f/JJ	24a-/JJ	24FF/JJ	.	.	.	.	.	.	.	.	.
24BB/LL	24BB/LL	24B/LL	24B/LL	24B/LL	24FF/LL	.	.	.	.	4BB/	4BB/	.	.	.
24BB/	24BB/	24B/	24f/	24f/	24FF/	.	.	.	.	.	.	.	.	.
24BB/	24BB/	24B/	24f/	24a-/	24FF/	.	.	.	.	.	.	.	.	.
24BB/	24BB/	24B/	24f/	24a-/	24FF/	.	.	.	.	.	.	.	.	.
24BB/	24BB/	24B/	24f/	24a-/	24FF/	.	.	.	.	.	.	.	.	.
24BB/JJ	24BB/JJ	24B/JJ	24f/JJ	24a-/JJ	24FF/JJ	.	.	.	.	.	.	.	.	.
=56	=56	=56	=56	=56	=56	=56	=56	=56	=56	=56	=56	=56	=56	=56
24C/LL	24C/LL	24c\LL	24c/LL	24c/LL	24C/LL	2c/	2c/	4F/	4f\	4C/	4C/	4ff\]	4aa\	4aa\
24C/	24C/	24f\	24f/	24f/	24C/	.	.	.	.	.	.	.	.	.
24C/	24C/	24f\	24a/	24a/	24C/	.	.	.	.	.	.	.	.	.
24C/	24C/	24f\	24a/	24cc/	24C/	.	.	.	.	.	.	.	.	.
24C/	24C/	24f\	24a/	24cc/	24C/	.	.	.	.	.	.	.	.	.
24C/JJ	24C/JJ	24f\JJ	24a/JJ	24cc/JJ	24C/JJ	.	.	.	.	.	.	.	.	.
8C'/	8C'/	8f'\	8a'/	8cc'\	8C/	.	.	4r	4r	4r	4r	4r	4r	4r
8r	8r	8r	8r	8r	8r	.	.	.	.	.	.	.	.	.
8C/	8C/	8G/	8B-/	8e/	4r	4r	4r	4r	4r	4r	4r	4r	4r	8ee\
8r	8r	8r	8r	8r	.	.	.	.	.	.	.	.	.	8r
*	*	*	*	*	*	*	*	*clefF4	*clefF4	*	*	*	*	*
=57	=57	=57	=57	=57	=57	=57	=57	=57	=57	=57	=57	=57	=57	=57
4FF/	2.FF/	2A\ 2c/	24A/LL	(24cc/LL	4FF/	2c/	2c/	[2.FF/	[2.F/	4F\	4F\	4r	4r	(24ccc\LL
.	.	.	24c/	24a/)	.	.	.	.	.	.	.	.	.	24aa\)
.	.	.	24f/	24f/	.	.	.	.	.	.	.	.	.	24ff\
.	.	.	24A/	24f/	.	.	.	.	.	.	.	.	.	24ff\
.	.	.	24c/	24f/	.	.	.	.	.	.	.	.	.	24ff\
.	.	.	24f/JJ	24f/JJ	.	.	.	.	.	.	.	.	.	24ff\JJ
4r	.	.	24A/LL	8f/)	4r	.	.	.	.	4r	4r	4r	(24aa\LL	8ff\)
.	.	.	24c/	.	.	.	.	.	.	.	.	.	24ff\)	.
.	.	.	24f/	.	.	.	.	.	.	.	.	.	24cc\	.
.	.	.	24A/	8r	.	.	.	.	.	.	.	.	24cc\	8r
.	.	.	24c/	.	.	.	.	.	.	.	.	.	24cc\	.
.	.	.	24f/JJ	.	.	.	.	.	.	.	.	.	24cc\JJ	.
4r	.	4B-\ 4d-/	24B-/LL	24g/LL	24C/LL	(8e/L	(8e/L	.	.	(4B-\	(4d-\	(4ee\	(24dd-/LL	24gg\LL
.	.	.	24d-/	24g/	24C/	.	.	.	.	.	.	.	24b-/)	24gg\
.	.	.	24e/	24g/	24C/	.	.	.	.	.	.	.	24g/	24gg\
.	.	.	24B-/	24g/	24C/	8g/J)	8g/J)	.	.	.	.	.	24e/	24gg\
.	.	.	24d-/	24a/	24C/	.	.	.	.	.	.	.	24f/	24aa\
.	.	.	24e/JJ	24b-/JJ	24C/JJ	.	.	.	.	.	.	.	24g/JJ	24bb-\JJ
=58	=58	=58	=58	=58	=58	=58	=58	=58	=58	=58	=58	=58	=58	=58
4FF/	2.FF/	2A\ 2c/	24A/LL	(24cc/LL	4FF/	4c/	4cc\	2.FF_/	2.F_/	4A\)	4c\)	8ff\)	8a/	(24ccc\LL
.	.	.	24c/	24a/)	.	.	.	.	.	.	.	.	.	24aa\)
.	.	.	24f/	24f/	.	.	.	.	.	.	.	.	.	24ff\
.	.	.	24A/	24f/	.	.	.	.	.	.	.	8r	8r	24ff\
.	.	.	24c/	24f/	.	.	.	.	.	.	.	.	.	24ff\
.	.	.	24f/JJ	24f/JJ	.	.	.	.	.	.	.	.	.	24ff\JJ
4r	.	.	24A/LL	8f/)	4r	4r	4r	.	.	4r	4r	4r	(24aa\LL	8ff\)
.	.	.	24c/	.	.	.	.	.	.	.	.	.	24ff\)	.
.	.	.	24f/	.	.	.	.	.	.	.	.	.	24cc'\	.
.	.	.	24A/	8r	.	.	.	.	.	.	.	.	24cc'\	8r
.	.	.	24c/	.	.	.	.	.	.	.	.	.	24cc'\	.
.	.	.	24f/JJ	.	.	.	.	.	.	.	.	.	24cc'\JJ	.
4r	.	4B-\ 4d-/	24B-/LL	24g/LL	24C/LL	(8e/L	(8e/L	.	.	4B-\	4d-\	4ee\	(24dd-/LL	24gg\LL
.	.	.	24d-/	24g/	24C/	.	.	.	.	.	.	.	24b-/)	24gg\
.	.	.	24e/	24g/	24C/	.	.	.	.	.	.	.	24g'/	24gg\
.	.	.	24B-/	24g/	24C/	8g/J)	8g/J)	.	.	.	.	.	24e'/	24gg\
.	.	.	24d-/	24a/	24C/	.	.	.	.	.	.	.	24f'/	24aa\
.	.	.	24e/JJ	24b-/JJ	24C/JJ	.	.	.	.	.	.	.	24g'/JJ	24bb-\JJ
=59	=59	=59	=59	=59	=59	=59	=59	=59	=59	=59	=59	=59	=59	=59
8FF/	8FF/	8A\ 8c/	24A/LL	(24cc/LL	24FF/LL	[2.c/	[2.cc\	8FF/]	8F/]	[2.A\	[2.c\	(4ff\	(4a/	(24ccc\LL
.	.	.	24c/	24a/)	24FF/	.	.	.	.	.	.	.	.	24aa\)
.	.	.	24f/	24f/	24FF/	.	.	.	.	.	.	.	.	24ff\
8r	8r	8r	24A/	24f/	24FF/	.	.	8r	8r	.	.	.	.	24ff\
.	.	.	24c/	24f/	24FF/	.	.	.	.	.	.	.	.	24ff\
.	.	.	24f/JJ	24f/JJ	24FF/JJ	.	.	.	.	.	.	.	.	24ff\JJ
8FF/	8FF/	8A/ 8C/	24A/LL	(24a/LL	24FF/LL	.	.	4r	4r	.	.	4aa\	4cc\	(24aa\LL
.	.	.	24c/	24f/)	24FF/	.	.	.	.	.	.	.	.	24ff\)
.	.	.	24f/	24c/	24FF/	.	.	.	.	.	.	.	.	24cc\
8r	8r	8r	24A/	24c/	24FF/	.	.	.	.	.	.	.	.	24cc\
.	.	.	24c/	24c/	24FF/	.	.	.	.	.	.	.	.	24cc\
.	.	.	24f/JJ	24c/JJ	24FF/JJ	.	.	.	.	.	.	.	.	24cc\JJ
8FF/	8FF/	8A/ 8C/	24A/LL	(24f/LL	24FF/LL	.	.	4r	4r	.	.	4ff\)	4ff\)	(24ff\LL
.	.	.	24c/	24c/)	24FF/	.	.	.	.	.	.	.	.	24cc\)
.	.	.	24f/	24A/	24FF/	.	.	.	.	.	.	.	.	24a\
8r	8r	8r	24A/	24A/	24FF/	.	.	.	.	.	.	.	.	24a\
.	.	.	24c/	24A/	24FF/	.	.	.	.	.	.	.	.	24a\
.	.	.	24f/JJ	24A/JJ	24FF/JJ	.	.	.	.	.	.	.	.	24a\JJ
=60	=60	=60	=60	=60	=60	=60	=60	=60	=60	=60	=60	=60	=60	=60
2.FF;/	2.FF;/	2.A;/ 2.C/	2.c;/	2.A;/	24FF;/LL	2.c;/]	2.cc;\]	2.F;/	2.F;/	2.A;\]	2.c;\]	2.cc;\	2.aa;\	2.fff;\
.	.	.	.	.	24FF/	.	.	.	.	.	.	.	.	.
.	.	.	.	.	24FF/	.	.	.	.	.	.	.	.	.
.	.	.	.	.	24FF/	.	.	.	.	.	.	.	.	.
.	.	.	.	.	24FF/	.	.	.	.	.	.	.	.	.
.	.	.	.	.	24FF/	.	.	.	.	.	.	.	.	.
.	.	.	.	.	24FF/	.	.	.	.	.	.	.	.	.
.	.	.	.	.	24FF/	.	.	.	.	.	.	.	.	.
.	.	.	.	.	24FF/	.	.	.	.	.	.	.	.	.
.	.	.	.	.	24FF/	.	.	.	.	.	.	.	.	.
.	.	.	.	.	24FF/	.	.	.	.	.	.	.	.	.
.	.	.	.	.	24FF/	.	.	.	.	.	.	.	.	.
.	.	.	.	.	24FF/	.	.	.	.	.	.	.	.	.
.	.	.	.	.	24FF/	.	.	.	.	.	.	.	.	.
.	.	.	.	.	24FF/	.	.	.	.	.	.	.	.	.
.	.	.	.	.	24FF/	.	.	.	.	.	.	.	.	.
.	.	.	.	.	24FF/	.	.	.	.	.	.	.	.	.
.	.	.	.	.	24FF/JJ	.	.	.	.	.	.	.	.	.
==|!	==|!	==|!	==|!	==|!	==|!	==|!	==|!	==|!	==|!	==|!	==|!	==|!	==|!	==|!
*-	*-	*-	*-	*-	*-	*-	*-	*-	*-	*-	*-	*-	*-	*-
!!!CDT: 1732/3/31/-1809/5/31/
!!!OCO: Johann Peter Salomon
!!!OCY: Oesterreich
!!!ODT: 1794///
!!!MPD: 1795/2/2/
!!!OPC: London
!!!PPR: Ernst Eulenburg, Ltd.
!!!PPP: London
!!!PDT: 1880///
!!!AGN: symphony
!!!AST: classical, orchestral
!!!AMT: simple triple
!!!YOR: Ernst Praetorius, editor
!!!AIN: cbass cello cor fagot flt oboe timpa tromp viola violn
!!!EEV: 1.0
!!!RDT: 1996 May 13
!!!YER: 1996 August 10
!!!YEN: United States of America
!!!EFL: 2/4
!!!ENC: Frances Bennion
!!!EED: W.B. Hewlett
!!!VTS: 3967431185
